( pcb2gcode 2.5.0 )
( Software-independent Gcode )

G94 ( Millimeters per minute feed rate. )
G21 ( Units == Millimeters. )

G90 ( Absolute coordinates. )
G00 S20000 ( RPM spindle speed. )
G64 P0.01000 ( set maximum deviation from commanded toolpath )
G01 F500.00000 ( Feedrate. )


G00 Z10.00000 (Retract to tool change height)
T1
M5      (Spindle stop.)
G04 P1.00000 (Wait for spindle to stop)
(MSG, Change tool bit to mill diameter 0.20000mm)
M6      (Tool change.)
M0      (Temporary machine stop.)
M3 ( Spindle on clockwise. )
G04 P1.00000 (Wait for spindle to get up to speed)
G04 P0 ( dwell for no time -- G64 should not smooth over this point )
G00 Z5.00000 ( retract )

G00 X5.78002 Y6.32751 ( rapid move to begin. )
G01 F250.00000
( Mill infeed pass 1/1 )
G01 Z-0.05000
G04 P0 ( dwell for no time -- G64 should not smooth over this point )
G01 F500.00000
G01 X5.78002 Y6.32751
G01 X5.78002 Y7.20251
G01 X5.77906 Y7.22212
G01 X5.77065 Y7.30747
G01 X5.76300 Y7.34592
G01 X5.73809 Y7.42799
G01 X5.72310 Y7.46421
G01 X5.68266 Y7.53985
G01 X5.66090 Y7.57247
G01 X5.60646 Y7.63876
G01 X5.57875 Y7.66647
G01 X5.51246 Y7.72088
G01 X5.47984 Y7.74267
G01 X5.40423 Y7.78308
G01 X5.36798 Y7.79809
G01 X5.28591 Y7.82299
G01 X5.24746 Y7.83063
G01 X5.16212 Y7.83904
G01 X5.14251 Y7.84000
G01 X2.01752 Y7.84000
G01 X1.99791 Y7.83904
G01 X1.91257 Y7.83063
G01 X1.87411 Y7.82299
G01 X1.79204 Y7.79809
G01 X1.75580 Y7.78308
G01 X1.68018 Y7.74267
G01 X1.64757 Y7.72088
G01 X1.58127 Y7.66647
G01 X1.55356 Y7.63876
G01 X1.49913 Y7.57247
G01 X1.47736 Y7.53985
G01 X1.43693 Y7.46421
G01 X1.42194 Y7.42799
G01 X1.39702 Y7.34592
G01 X1.38938 Y7.30747
G01 X1.38097 Y7.22212
G01 X1.38000 Y7.20251
G01 X1.38000 Y6.32751
G01 X1.38097 Y6.30790
G01 X1.38938 Y6.22256
G01 X1.39702 Y6.18410
G01 X1.42194 Y6.10203
G01 X1.43693 Y6.06581
G01 X1.47736 Y5.99017
G01 X1.49913 Y5.95756
G01 X1.55356 Y5.89127
G01 X1.58127 Y5.86355
G01 X1.64757 Y5.80915
G01 X1.68018 Y5.78735
G01 X1.75580 Y5.74694
G01 X1.79204 Y5.73193
G01 X1.87411 Y5.70704
G01 X1.91257 Y5.69939
G01 X1.99791 Y5.69099
G01 X2.01752 Y5.69002
G01 X5.14251 Y5.69002
G01 X5.16212 Y5.69099
G01 X5.24746 Y5.69939
G01 X5.28591 Y5.70704
G01 X5.36798 Y5.73193
G01 X5.40423 Y5.74694
G01 X5.47984 Y5.78735
G01 X5.51246 Y5.80915
G01 X5.57875 Y5.86355
G01 X5.60646 Y5.89127
G01 X5.66090 Y5.95756
G01 X5.68266 Y5.99017
G01 X5.72310 Y6.06581
G01 X5.73809 Y6.10203
G01 X5.76300 Y6.18410
G01 X5.77065 Y6.22256
G01 X5.77906 Y6.30790
G01 X5.78002 Y6.32751
G04 P0 ( dwell for no time -- G64 should not smooth over this point )
G00 Z5.00000 ( retract )

G00 X5.68002 Y6.32751 ( rapid move to begin. )
G01 F250.00000
( Mill infeed pass 1/1 )
G01 Z-0.05000
G04 P0 ( dwell for no time -- G64 should not smooth over this point )
G01 F500.00000
G01 X5.68002 Y6.32751
G01 X5.68002 Y7.20251
G01 X5.67954 Y7.21232
G01 X5.67113 Y7.29766
G01 X5.66730 Y7.31689
G01 X5.64240 Y7.39896
G01 X5.63491 Y7.41707
G01 X5.59447 Y7.49271
G01 X5.58358 Y7.50902
G01 X5.52917 Y7.57531
G01 X5.51530 Y7.58918
G01 X5.44901 Y7.64359
G01 X5.43273 Y7.65448
G01 X5.35709 Y7.69489
G01 X5.33898 Y7.70241
G01 X5.25688 Y7.72730
G01 X5.23765 Y7.73111
G01 X5.15231 Y7.73952
G01 X5.14251 Y7.74000
G01 X2.01752 Y7.74000
G01 X2.00771 Y7.73952
G01 X1.92237 Y7.73111
G01 X1.90314 Y7.72730
G01 X1.82105 Y7.70241
G01 X1.80294 Y7.69489
G01 X1.72730 Y7.65448
G01 X1.71102 Y7.64359
G01 X1.64472 Y7.58918
G01 X1.63085 Y7.57531
G01 X1.57645 Y7.50902
G01 X1.56555 Y7.49271
G01 X1.52511 Y7.41707
G01 X1.51762 Y7.39896
G01 X1.49273 Y7.31689
G01 X1.48889 Y7.29766
G01 X1.48049 Y7.21232
G01 X1.48000 Y7.20251
G01 X1.48000 Y6.32751
G01 X1.48049 Y6.31771
G01 X1.48889 Y6.23236
G01 X1.49273 Y6.21313
G01 X1.51762 Y6.13107
G01 X1.52511 Y6.11296
G01 X1.56555 Y6.03732
G01 X1.57645 Y6.02101
G01 X1.63085 Y5.95471
G01 X1.64472 Y5.94085
G01 X1.71102 Y5.88644
G01 X1.72730 Y5.87554
G01 X1.80294 Y5.83513
G01 X1.82105 Y5.82761
G01 X1.90314 Y5.80272
G01 X1.92237 Y5.79891
G01 X2.00771 Y5.79050
G01 X2.01752 Y5.79002
G01 X5.14251 Y5.79002
G01 X5.15231 Y5.79050
G01 X5.23765 Y5.79891
G01 X5.25688 Y5.80272
G01 X5.33898 Y5.82761
G01 X5.35709 Y5.83513
G01 X5.43273 Y5.87554
G01 X5.44901 Y5.88644
G01 X5.51530 Y5.94085
G01 X5.52917 Y5.95471
G01 X5.58358 Y6.02101
G01 X5.59447 Y6.03732
G01 X5.63491 Y6.11296
G01 X5.64240 Y6.13107
G01 X5.66730 Y6.21313
G01 X5.67113 Y6.23236
G01 X5.67954 Y6.31771
G01 X5.68002 Y6.32751
G04 P0 ( dwell for no time -- G64 should not smooth over this point )
G00 Z5.00000 ( retract )

G00 X5.78002 Y8.86751 ( rapid move to begin. )
G01 F250.00000
( Mill infeed pass 1/1 )
G01 Z-0.05000
G04 P0 ( dwell for no time -- G64 should not smooth over this point )
G01 F500.00000
G01 X5.78002 Y8.86751
G01 X5.78002 Y9.74252
G01 X5.77906 Y9.76212
G01 X5.77065 Y9.84747
G01 X5.76300 Y9.88592
G01 X5.73809 Y9.96799
G01 X5.72310 Y10.00421
G01 X5.68266 Y10.07985
G01 X5.66090 Y10.11247
G01 X5.60646 Y10.17876
G01 X5.57875 Y10.20647
G01 X5.51246 Y10.26088
G01 X5.47984 Y10.28267
G01 X5.40423 Y10.32308
G01 X5.36798 Y10.33809
G01 X5.28591 Y10.36299
G01 X5.24746 Y10.37063
G01 X5.16212 Y10.37904
G01 X5.14251 Y10.38000
G01 X2.01752 Y10.38000
G01 X1.99791 Y10.37904
G01 X1.91257 Y10.37063
G01 X1.87411 Y10.36299
G01 X1.79204 Y10.33809
G01 X1.75580 Y10.32308
G01 X1.68018 Y10.28267
G01 X1.64757 Y10.26088
G01 X1.58127 Y10.20647
G01 X1.55356 Y10.17876
G01 X1.49913 Y10.11247
G01 X1.47736 Y10.07985
G01 X1.43693 Y10.00421
G01 X1.42194 Y9.96799
G01 X1.39702 Y9.88592
G01 X1.38938 Y9.84747
G01 X1.38097 Y9.76212
G01 X1.38000 Y9.74252
G01 X1.38000 Y8.86751
G01 X1.38097 Y8.84790
G01 X1.38938 Y8.76256
G01 X1.39702 Y8.72410
G01 X1.42194 Y8.64203
G01 X1.43693 Y8.60581
G01 X1.47736 Y8.53017
G01 X1.49913 Y8.49756
G01 X1.55356 Y8.43127
G01 X1.58127 Y8.40355
G01 X1.64757 Y8.34915
G01 X1.68018 Y8.32735
G01 X1.75580 Y8.28694
G01 X1.79204 Y8.27193
G01 X1.87411 Y8.24704
G01 X1.91257 Y8.23939
G01 X1.99791 Y8.23099
G01 X2.01752 Y8.23002
G01 X5.14251 Y8.23002
G01 X5.16212 Y8.23099
G01 X5.24746 Y8.23939
G01 X5.28591 Y8.24704
G01 X5.36798 Y8.27193
G01 X5.40423 Y8.28694
G01 X5.47984 Y8.32735
G01 X5.51246 Y8.34915
G01 X5.57875 Y8.40355
G01 X5.60646 Y8.43127
G01 X5.66090 Y8.49756
G01 X5.68266 Y8.53017
G01 X5.72310 Y8.60581
G01 X5.73809 Y8.64203
G01 X5.76300 Y8.72410
G01 X5.77065 Y8.76256
G01 X5.77906 Y8.84790
G01 X5.78002 Y8.86751
G04 P0 ( dwell for no time -- G64 should not smooth over this point )
G00 Z5.00000 ( retract )

G00 X5.68002 Y8.86751 ( rapid move to begin. )
G01 F250.00000
( Mill infeed pass 1/1 )
G01 Z-0.05000
G04 P0 ( dwell for no time -- G64 should not smooth over this point )
G01 F500.00000
G01 X5.68002 Y8.86751
G01 X5.68002 Y9.74252
G01 X5.67954 Y9.75232
G01 X5.67113 Y9.83766
G01 X5.66730 Y9.85689
G01 X5.64240 Y9.93896
G01 X5.63491 Y9.95707
G01 X5.59447 Y10.03271
G01 X5.58358 Y10.04902
G01 X5.52917 Y10.11531
G01 X5.51530 Y10.12918
G01 X5.44901 Y10.18359
G01 X5.43273 Y10.19448
G01 X5.35709 Y10.23489
G01 X5.33898 Y10.24241
G01 X5.25688 Y10.26730
G01 X5.23765 Y10.27111
G01 X5.15231 Y10.27952
G01 X5.14251 Y10.28000
G01 X2.01752 Y10.28000
G01 X2.00771 Y10.27952
G01 X1.92237 Y10.27111
G01 X1.90314 Y10.26730
G01 X1.82105 Y10.24241
G01 X1.80294 Y10.23489
G01 X1.72730 Y10.19448
G01 X1.71102 Y10.18359
G01 X1.64472 Y10.12918
G01 X1.63085 Y10.11531
G01 X1.57645 Y10.04902
G01 X1.56555 Y10.03271
G01 X1.52511 Y9.95707
G01 X1.51762 Y9.93896
G01 X1.49273 Y9.85689
G01 X1.48889 Y9.83766
G01 X1.48049 Y9.75232
G01 X1.48000 Y9.74252
G01 X1.48000 Y8.86751
G01 X1.48049 Y8.85771
G01 X1.48889 Y8.77236
G01 X1.49273 Y8.75313
G01 X1.51762 Y8.67107
G01 X1.52511 Y8.65296
G01 X1.56555 Y8.57732
G01 X1.57645 Y8.56101
G01 X1.63085 Y8.49471
G01 X1.64472 Y8.48085
G01 X1.71102 Y8.42644
G01 X1.72730 Y8.41554
G01 X1.80294 Y8.37513
G01 X1.82105 Y8.36761
G01 X1.90314 Y8.34272
G01 X1.92237 Y8.33891
G01 X2.00771 Y8.33050
G01 X2.01752 Y8.33002
G01 X5.14251 Y8.33002
G01 X5.15231 Y8.33050
G01 X5.23765 Y8.33891
G01 X5.25688 Y8.34272
G01 X5.33898 Y8.36761
G01 X5.35709 Y8.37513
G01 X5.43273 Y8.41554
G01 X5.44901 Y8.42644
G01 X5.51530 Y8.48085
G01 X5.52917 Y8.49471
G01 X5.58358 Y8.56101
G01 X5.59447 Y8.57732
G01 X5.63491 Y8.65296
G01 X5.64240 Y8.67107
G01 X5.66730 Y8.75313
G01 X5.67113 Y8.77236
G01 X5.67954 Y8.85771
G01 X5.68002 Y8.86751
G04 P0 ( dwell for no time -- G64 should not smooth over this point )
G00 Z5.00000 ( retract )

G00 X5.78002 Y11.40751 ( rapid move to begin. )
G01 F250.00000
( Mill infeed pass 1/1 )
G01 Z-0.05000
G04 P0 ( dwell for no time -- G64 should not smooth over this point )
G01 F500.00000
G01 X5.78002 Y11.40751
G01 X5.78002 Y12.28252
G01 X5.77906 Y12.30212
G01 X5.77065 Y12.38747
G01 X5.76300 Y12.42592
G01 X5.73809 Y12.50799
G01 X5.72310 Y12.54421
G01 X5.68266 Y12.61985
G01 X5.66090 Y12.65247
G01 X5.60646 Y12.71876
G01 X5.57875 Y12.74647
G01 X5.51246 Y12.80088
G01 X5.47984 Y12.82267
G01 X5.40423 Y12.86308
G01 X5.36798 Y12.87809
G01 X5.28591 Y12.90299
G01 X5.24746 Y12.91063
G01 X5.16212 Y12.91904
G01 X5.14251 Y12.92000
G01 X2.01752 Y12.92000
G01 X1.99791 Y12.91904
G01 X1.91257 Y12.91063
G01 X1.87411 Y12.90299
G01 X1.79204 Y12.87809
G01 X1.75580 Y12.86308
G01 X1.68018 Y12.82267
G01 X1.64757 Y12.80088
G01 X1.58127 Y12.74647
G01 X1.55356 Y12.71876
G01 X1.49913 Y12.65247
G01 X1.47736 Y12.61985
G01 X1.43693 Y12.54421
G01 X1.42194 Y12.50799
G01 X1.39702 Y12.42592
G01 X1.38938 Y12.38747
G01 X1.38097 Y12.30212
G01 X1.38000 Y12.28252
G01 X1.38000 Y11.40751
G01 X1.38097 Y11.38790
G01 X1.38938 Y11.30256
G01 X1.39702 Y11.26410
G01 X1.42194 Y11.18203
G01 X1.43693 Y11.14581
G01 X1.47736 Y11.07017
G01 X1.49913 Y11.03756
G01 X1.55356 Y10.97127
G01 X1.58127 Y10.94355
G01 X1.64757 Y10.88915
G01 X1.68018 Y10.86735
G01 X1.75580 Y10.82694
G01 X1.79204 Y10.81193
G01 X1.87411 Y10.78704
G01 X1.91257 Y10.77939
G01 X1.99791 Y10.77099
G01 X2.01752 Y10.77002
G01 X5.14251 Y10.77002
G01 X5.16212 Y10.77099
G01 X5.24746 Y10.77939
G01 X5.28591 Y10.78704
G01 X5.36798 Y10.81193
G01 X5.40423 Y10.82694
G01 X5.47984 Y10.86735
G01 X5.51246 Y10.88915
G01 X5.57875 Y10.94355
G01 X5.60646 Y10.97127
G01 X5.66090 Y11.03756
G01 X5.68266 Y11.07017
G01 X5.72310 Y11.14581
G01 X5.73809 Y11.18203
G01 X5.76300 Y11.26410
G01 X5.77065 Y11.30256
G01 X5.77906 Y11.38790
G01 X5.78002 Y11.40751
G04 P0 ( dwell for no time -- G64 should not smooth over this point )
G00 Z5.00000 ( retract )

G00 X5.68002 Y11.40751 ( rapid move to begin. )
G01 F250.00000
( Mill infeed pass 1/1 )
G01 Z-0.05000
G04 P0 ( dwell for no time -- G64 should not smooth over this point )
G01 F500.00000
G01 X5.68002 Y11.40751
G01 X5.68002 Y12.28252
G01 X5.67954 Y12.29232
G01 X5.67113 Y12.37766
G01 X5.66730 Y12.39689
G01 X5.64240 Y12.47896
G01 X5.63491 Y12.49707
G01 X5.59447 Y12.57271
G01 X5.58358 Y12.58902
G01 X5.52917 Y12.65531
G01 X5.51530 Y12.66918
G01 X5.44901 Y12.72359
G01 X5.43273 Y12.73448
G01 X5.35709 Y12.77489
G01 X5.33898 Y12.78241
G01 X5.25688 Y12.80730
G01 X5.23765 Y12.81111
G01 X5.15231 Y12.81952
G01 X5.14251 Y12.82000
G01 X2.01752 Y12.82000
G01 X2.00771 Y12.81952
G01 X1.92237 Y12.81111
G01 X1.90314 Y12.80730
G01 X1.82105 Y12.78241
G01 X1.80294 Y12.77489
G01 X1.72730 Y12.73448
G01 X1.71102 Y12.72359
G01 X1.64472 Y12.66918
G01 X1.63085 Y12.65531
G01 X1.57645 Y12.58902
G01 X1.56555 Y12.57271
G01 X1.52511 Y12.49707
G01 X1.51762 Y12.47896
G01 X1.49273 Y12.39689
G01 X1.48889 Y12.37766
G01 X1.48049 Y12.29232
G01 X1.48000 Y12.28252
G01 X1.48000 Y11.40751
G01 X1.48049 Y11.39771
G01 X1.48889 Y11.31236
G01 X1.49273 Y11.29313
G01 X1.51762 Y11.21107
G01 X1.52511 Y11.19296
G01 X1.56555 Y11.11732
G01 X1.57645 Y11.10101
G01 X1.63085 Y11.03471
G01 X1.64472 Y11.02085
G01 X1.71102 Y10.96644
G01 X1.72730 Y10.95554
G01 X1.80294 Y10.91513
G01 X1.82105 Y10.90761
G01 X1.90314 Y10.88272
G01 X1.92237 Y10.87891
G01 X2.00771 Y10.87050
G01 X2.01752 Y10.87002
G01 X5.14251 Y10.87002
G01 X5.15231 Y10.87050
G01 X5.23765 Y10.87891
G01 X5.25688 Y10.88272
G01 X5.33898 Y10.90761
G01 X5.35709 Y10.91513
G01 X5.43273 Y10.95554
G01 X5.44901 Y10.96644
G01 X5.51530 Y11.02085
G01 X5.52917 Y11.03471
G01 X5.58358 Y11.10101
G01 X5.59447 Y11.11732
G01 X5.63491 Y11.19296
G01 X5.64240 Y11.21107
G01 X5.66730 Y11.29313
G01 X5.67113 Y11.31236
G01 X5.67954 Y11.39771
G01 X5.68002 Y11.40751

G04 P0 ( dwell for no time -- G64 should not smooth over this point )
G00 Z10.000000 ( retract )

M5 ( Spindle off. )
G04 P1.000000
M9 ( Coolant off. )
M2 ( Program end. )

