( pcb2gcode 2.5.0 )
( Software-independent Gcode )

G94 ( Millimeters per minute feed rate. )
G21 ( Units == Millimeters. )

G90 ( Absolute coordinates. )
G00 S20000 ( RPM spindle speed. )
G64 P0.01000 ( set maximum deviation from commanded toolpath )
G01 F500.00000 ( Feedrate. )


G00 Z10.00000 (Retract to tool change height)
T1
M5      (Spindle stop.)
G04 P1.00000 (Wait for spindle to stop)
(MSG, Change tool bit to mill diameter 0.20000mm)
M6      (Tool change.)
M0      (Temporary machine stop.)
M3 ( Spindle on clockwise. )
G04 P1.00000 (Wait for spindle to get up to speed)
G04 P0 ( dwell for no time -- G64 should not smooth over this point )
G00 Z5.00000 ( retract )

G00 X4.69498 Y5.94102 ( rapid move to begin. )
G01 F250.00000
( Mill infeed pass 1/1 )
G01 Z-0.05000
G04 P0 ( dwell for no time -- G64 should not smooth over this point )
G01 F500.00000
G01 X4.69498 Y5.94102
G01 X4.69498 Y6.59101
G01 X4.69546 Y6.60081
G01 X4.70028 Y6.64958
G01 X4.70409 Y6.66881
G01 X4.71832 Y6.71572
G01 X4.72581 Y6.73383
G01 X4.74890 Y6.77704
G01 X4.75982 Y6.79335
G01 X4.79089 Y6.83122
G01 X4.80475 Y6.84509
G01 X4.84265 Y6.87618
G01 X4.85896 Y6.88707
G01 X4.90219 Y6.91019
G01 X4.92030 Y6.91768
G01 X4.96719 Y6.93190
G01 X4.98642 Y6.93574
G01 X5.03518 Y6.94054
G01 X5.04499 Y6.94102
G01 X5.94499 Y6.94102
G01 X5.95479 Y6.94054
G01 X6.00356 Y6.93574
G01 X6.02279 Y6.93190
G01 X6.06967 Y6.91768
G01 X6.08779 Y6.91019
G01 X6.13102 Y6.88707
G01 X6.14732 Y6.87618
G01 X6.18519 Y6.84509
G01 X6.19906 Y6.83122
G01 X6.23015 Y6.79335
G01 X6.24105 Y6.77704
G01 X6.26414 Y6.73383
G01 X6.27166 Y6.71572
G01 X6.28588 Y6.66881
G01 X6.28969 Y6.64958
G01 X6.29302 Y6.61603
G01 X8.50696 Y6.61603
G01 X8.51028 Y6.64958
G01 X8.51409 Y6.66881
G01 X8.52832 Y6.71572
G01 X8.53584 Y6.73383
G01 X8.55893 Y6.77704
G01 X8.56982 Y6.79335
G01 X8.60091 Y6.83122
G01 X8.61478 Y6.84509
G01 X8.65265 Y6.87618
G01 X8.66896 Y6.88707
G01 X8.71219 Y6.91019
G01 X8.73030 Y6.91768
G01 X8.77719 Y6.93190
G01 X8.79642 Y6.93574
G01 X8.84518 Y6.94054
G01 X8.85499 Y6.94102
G01 X9.75499 Y6.94102
G01 X9.76479 Y6.94054
G01 X9.81356 Y6.93574
G01 X9.83279 Y6.93190
G01 X9.87968 Y6.91768
G01 X9.89779 Y6.91019
G01 X9.94102 Y6.88707
G01 X9.95732 Y6.87618
G01 X9.99519 Y6.84509
G01 X10.00906 Y6.83122
G01 X10.04015 Y6.79335
G01 X10.05105 Y6.77704
G01 X10.07414 Y6.73383
G01 X10.08166 Y6.71572
G01 X10.09588 Y6.66881
G01 X10.09969 Y6.64958
G01 X10.10302 Y6.61603
G01 X12.31696 Y6.61603
G01 X12.32028 Y6.64958
G01 X12.32409 Y6.66881
G01 X12.33832 Y6.71572
G01 X12.34584 Y6.73383
G01 X12.36893 Y6.77704
G01 X12.37982 Y6.79335
G01 X12.41091 Y6.83122
G01 X12.42478 Y6.84509
G01 X12.46265 Y6.87618
G01 X12.47896 Y6.88707
G01 X12.51099 Y6.90419
G01 X12.51099 Y9.68600
G01 X12.51147 Y9.69580
G01 X12.51627 Y9.74460
G01 X12.52011 Y9.76383
G01 X12.53433 Y9.81071
G01 X12.54182 Y9.82882
G01 X12.56494 Y9.87205
G01 X12.57581 Y9.88834
G01 X12.60690 Y9.92623
G01 X12.61350 Y9.93350
G01 X14.17502 Y11.49501
G01 X13.99498 Y11.49501
G01 X13.98518 Y11.49550
G01 X13.93639 Y11.50030
G01 X13.91716 Y11.50413
G01 X13.87027 Y11.51836
G01 X13.85216 Y11.52585
G01 X13.80893 Y11.54896
G01 X13.79265 Y11.55983
G01 X13.75475 Y11.59095
G01 X13.74749 Y11.59753
G01 X13.42201 Y11.92300
G01 X12.66499 Y11.92300
G01 X12.65518 Y11.92349
G01 X12.60642 Y11.92829
G01 X12.58719 Y11.93212
G01 X12.54030 Y11.94635
G01 X12.52219 Y11.95384
G01 X12.47896 Y11.97695
G01 X12.46265 Y11.98785
G01 X12.42478 Y12.01894
G01 X12.41091 Y12.03281
G01 X12.37982 Y12.07068
G01 X12.36893 Y12.08699
G01 X12.34584 Y12.13019
G01 X12.33832 Y12.14830
G01 X12.32409 Y12.19522
G01 X12.32028 Y12.21444
G01 X12.31546 Y12.26321
G01 X12.31498 Y12.27302
G01 X12.31498 Y12.37502
G01 X10.10500 Y12.37502
G01 X10.10500 Y12.27302
G01 X10.10452 Y12.26321
G01 X10.09969 Y12.21444
G01 X10.09588 Y12.19522
G01 X10.08166 Y12.14830
G01 X10.07414 Y12.13019
G01 X10.05105 Y12.08699
G01 X10.04015 Y12.07068
G01 X10.00906 Y12.03281
G01 X9.99519 Y12.01894
G01 X9.95732 Y11.98785
G01 X9.94102 Y11.97695
G01 X9.89779 Y11.95384
G01 X9.87968 Y11.94635
G01 X9.83279 Y11.93212
G01 X9.81356 Y11.92829
G01 X9.76479 Y11.92349
G01 X9.75499 Y11.92300
G01 X8.85499 Y11.92300
G01 X8.84518 Y11.92349
G01 X8.79642 Y11.92829
G01 X8.77719 Y11.93212
G01 X8.73030 Y11.94635
G01 X8.71219 Y11.95384
G01 X8.66896 Y11.97695
G01 X8.65265 Y11.98785
G01 X8.61478 Y12.01894
G01 X8.60091 Y12.03281
G01 X8.56982 Y12.07068
G01 X8.55893 Y12.08699
G01 X8.53584 Y12.13019
G01 X8.52832 Y12.14830
G01 X8.51409 Y12.19522
G01 X8.51028 Y12.21444
G01 X8.50546 Y12.26321
G01 X8.50498 Y12.27302
G01 X8.50498 Y12.37502
G01 X6.29500 Y12.37502
G01 X6.29500 Y12.27302
G01 X6.29452 Y12.26321
G01 X6.28969 Y12.21444
G01 X6.28588 Y12.19522
G01 X6.27166 Y12.14830
G01 X6.26414 Y12.13019
G01 X6.24105 Y12.08699
G01 X6.23015 Y12.07068
G01 X6.19906 Y12.03281
G01 X6.18519 Y12.01894
G01 X6.14732 Y11.98785
G01 X6.13102 Y11.97695
G01 X6.08779 Y11.95384
G01 X6.06967 Y11.94635
G01 X6.02279 Y11.93212
G01 X6.00356 Y11.92829
G01 X5.95479 Y11.92349
G01 X5.94499 Y11.92300
G01 X5.04499 Y11.92300
G01 X5.03518 Y11.92349
G01 X4.98642 Y11.92829
G01 X4.96719 Y11.93212
G01 X4.92030 Y11.94635
G01 X4.90219 Y11.95384
G01 X4.85896 Y11.97695
G01 X4.84265 Y11.98785
G01 X4.80475 Y12.01894
G01 X4.79089 Y12.03281
G01 X4.75982 Y12.07068
G01 X4.74890 Y12.08699
G01 X4.72581 Y12.13019
G01 X4.71832 Y12.14830
G01 X4.70409 Y12.19522
G01 X4.70028 Y12.21444
G01 X4.69546 Y12.26321
G01 X4.69498 Y12.27302
G01 X4.69498 Y12.92300
G01 X4.69546 Y12.93281
G01 X4.70028 Y12.98160
G01 X4.70409 Y13.00080
G01 X4.71832 Y13.04772
G01 X4.72581 Y13.06583
G01 X4.74890 Y13.10906
G01 X4.75982 Y13.12534
G01 X4.79089 Y13.16323
G01 X4.80475 Y13.17710
G01 X4.84265 Y13.20819
G01 X4.85896 Y13.21906
G01 X4.90219 Y13.24218
G01 X4.92030 Y13.24967
G01 X4.96719 Y13.26392
G01 X4.98642 Y13.26773
G01 X5.03518 Y13.27253
G01 X5.04499 Y13.27301
G01 X5.94499 Y13.27301
G01 X5.95479 Y13.27253
G01 X6.00356 Y13.26773
G01 X6.02279 Y13.26392
G01 X6.06967 Y13.24967
G01 X6.08779 Y13.24218
G01 X6.13102 Y13.21906
G01 X6.14732 Y13.20819
G01 X6.18519 Y13.17710
G01 X6.19906 Y13.16323
G01 X6.23015 Y13.12534
G01 X6.24105 Y13.10906
G01 X6.25924 Y13.07502
G01 X8.54074 Y13.07502
G01 X8.55893 Y13.10906
G01 X8.56982 Y13.12534
G01 X8.60091 Y13.16323
G01 X8.61478 Y13.17710
G01 X8.65265 Y13.20819
G01 X8.66896 Y13.21906
G01 X8.71219 Y13.24218
G01 X8.73030 Y13.24967
G01 X8.77719 Y13.26392
G01 X8.79642 Y13.26773
G01 X8.84518 Y13.27253
G01 X8.85499 Y13.27301
G01 X9.75499 Y13.27301
G01 X9.76479 Y13.27253
G01 X9.81356 Y13.26773
G01 X9.83279 Y13.26392
G01 X9.87968 Y13.24967
G01 X9.89779 Y13.24218
G01 X9.94102 Y13.21906
G01 X9.95732 Y13.20819
G01 X9.99519 Y13.17710
G01 X10.00906 Y13.16323
G01 X10.04015 Y13.12534
G01 X10.05105 Y13.10906
G01 X10.06924 Y13.07502
G01 X12.35074 Y13.07502
G01 X12.36893 Y13.10906
G01 X12.37982 Y13.12534
G01 X12.41091 Y13.16323
G01 X12.42478 Y13.17710
G01 X12.46265 Y13.20819
G01 X12.47896 Y13.21906
G01 X12.52219 Y13.24218
G01 X12.54030 Y13.24967
G01 X12.58719 Y13.26392
G01 X12.60642 Y13.26773
G01 X12.65518 Y13.27253
G01 X12.66499 Y13.27301
G01 X13.56499 Y13.27301
G01 X13.57479 Y13.27253
G01 X13.62356 Y13.26773
G01 X13.64279 Y13.26392
G01 X13.68967 Y13.24967
G01 X13.70779 Y13.24218
G01 X13.75102 Y13.21906
G01 X13.76732 Y13.20819
G01 X13.80519 Y13.17710
G01 X13.81906 Y13.16323
G01 X13.85015 Y13.12534
G01 X13.86105 Y13.10906
G01 X13.88414 Y13.06583
G01 X13.89166 Y13.04772
G01 X13.90588 Y13.00080
G01 X13.90969 Y12.98160
G01 X13.91452 Y12.93281
G01 X13.91500 Y12.92300
G01 X13.91500 Y12.41998
G01 X14.13994 Y12.19501
G01 X14.41662 Y12.19501
G01 X14.43290 Y12.22549
G01 X14.44380 Y12.24180
G01 X14.51843 Y12.33271
G01 X14.53229 Y12.34657
G01 X14.62320 Y12.42120
G01 X14.63951 Y12.43210
G01 X14.74324 Y12.48754
G01 X14.76135 Y12.49504
G01 X14.87390 Y12.52917
G01 X14.89313 Y12.53301
G01 X15.01020 Y12.54454
G01 X15.02978 Y12.54454
G01 X15.14685 Y12.53301
G01 X15.16608 Y12.52917
G01 X15.27862 Y12.49504
G01 X15.29673 Y12.48754
G01 X15.40047 Y12.43210
G01 X15.41677 Y12.42120
G01 X15.50768 Y12.34657
G01 X15.52155 Y12.33271
G01 X15.59617 Y12.24180
G01 X15.60707 Y12.22549
G01 X15.66252 Y12.12176
G01 X15.67001 Y12.10365
G01 X15.70415 Y11.99110
G01 X15.70798 Y11.97187
G01 X15.71952 Y11.85480
G01 X15.71952 Y11.83522
G01 X15.70798 Y11.71815
G01 X15.70415 Y11.69892
G01 X15.67001 Y11.58638
G01 X15.66252 Y11.56827
G01 X15.60707 Y11.46453
G01 X15.59617 Y11.44823
G01 X15.52155 Y11.35732
G01 X15.50768 Y11.34345
G01 X15.41677 Y11.26883
G01 X15.40047 Y11.25793
G01 X15.29673 Y11.20248
G01 X15.27862 Y11.19499
G01 X15.16608 Y11.16085
G01 X15.14685 Y11.15702
G01 X15.02978 Y11.14548
G01 X15.01020 Y11.14548
G01 X14.89313 Y11.15702
G01 X14.87390 Y11.16085
G01 X14.84083 Y11.17088
G01 X13.21099 Y9.54104
G01 X13.21099 Y6.94102
G01 X13.56499 Y6.94102
G01 X13.57479 Y6.94054
G01 X13.62356 Y6.93574
G01 X13.64279 Y6.93190
G01 X13.68967 Y6.91768
G01 X13.70779 Y6.91019
G01 X13.75102 Y6.88707
G01 X13.76732 Y6.87618
G01 X13.80519 Y6.84509
G01 X13.81906 Y6.83122
G01 X13.85015 Y6.79335
G01 X13.86105 Y6.77704
G01 X13.88414 Y6.73383
G01 X13.89166 Y6.71572
G01 X13.90588 Y6.66881
G01 X13.90969 Y6.64958
G01 X13.91452 Y6.60081
G01 X13.91500 Y6.59101
G01 X13.91500 Y5.94102
G01 X13.91452 Y5.93122
G01 X13.90969 Y5.88243
G01 X13.90588 Y5.86322
G01 X13.89166 Y5.81631
G01 X13.88414 Y5.79820
G01 X13.86105 Y5.75497
G01 X13.85015 Y5.73869
G01 X13.81906 Y5.70079
G01 X13.80519 Y5.68692
G01 X13.76732 Y5.65583
G01 X13.75102 Y5.64496
G01 X13.70779 Y5.62185
G01 X13.68967 Y5.61435
G01 X13.64279 Y5.60013
G01 X13.62356 Y5.59630
G01 X13.57479 Y5.59149
G01 X13.56499 Y5.59101
G01 X12.66499 Y5.59101
G01 X12.65518 Y5.59149
G01 X12.60642 Y5.59630
G01 X12.58719 Y5.60013
G01 X12.54030 Y5.61435
G01 X12.52219 Y5.62185
G01 X12.47896 Y5.64496
G01 X12.46265 Y5.65583
G01 X12.42478 Y5.68692
G01 X12.41091 Y5.70079
G01 X12.37982 Y5.73869
G01 X12.36893 Y5.75497
G01 X12.34584 Y5.79820
G01 X12.33832 Y5.81631
G01 X12.32409 Y5.86322
G01 X12.32028 Y5.88243
G01 X12.31696 Y5.91603
G01 X10.10302 Y5.91603
G01 X10.09969 Y5.88243
G01 X10.09588 Y5.86322
G01 X10.08166 Y5.81631
G01 X10.07414 Y5.79820
G01 X10.05105 Y5.75497
G01 X10.04015 Y5.73869
G01 X10.00906 Y5.70079
G01 X9.99519 Y5.68692
G01 X9.95732 Y5.65583
G01 X9.94102 Y5.64496
G01 X9.89779 Y5.62185
G01 X9.87968 Y5.61435
G01 X9.83279 Y5.60013
G01 X9.81356 Y5.59630
G01 X9.76479 Y5.59149
G01 X9.75499 Y5.59101
G01 X8.85499 Y5.59101
G01 X8.84518 Y5.59149
G01 X8.79642 Y5.59630
G01 X8.77719 Y5.60013
G01 X8.73030 Y5.61435
G01 X8.71219 Y5.62185
G01 X8.66896 Y5.64496
G01 X8.65265 Y5.65583
G01 X8.61478 Y5.68692
G01 X8.60091 Y5.70079
G01 X8.56982 Y5.73869
G01 X8.55893 Y5.75497
G01 X8.53584 Y5.79820
G01 X8.52832 Y5.81631
G01 X8.51409 Y5.86322
G01 X8.51028 Y5.88243
G01 X8.50696 Y5.91603
G01 X6.29302 Y5.91603
G01 X6.28969 Y5.88243
G01 X6.28588 Y5.86322
G01 X6.27166 Y5.81631
G01 X6.26414 Y5.79820
G01 X6.24105 Y5.75497
G01 X6.23015 Y5.73869
G01 X6.19906 Y5.70079
G01 X6.18519 Y5.68692
G01 X6.14732 Y5.65583
G01 X6.13102 Y5.64496
G01 X6.08779 Y5.62185
G01 X6.06967 Y5.61435
G01 X6.02279 Y5.60013
G01 X6.00356 Y5.59630
G01 X5.95479 Y5.59149
G01 X5.94499 Y5.59101
G01 X5.04499 Y5.59101
G01 X5.03518 Y5.59149
G01 X4.98642 Y5.59630
G01 X4.96719 Y5.60013
G01 X4.92030 Y5.61435
G01 X4.90219 Y5.62185
G01 X4.85896 Y5.64496
G01 X4.84265 Y5.65583
G01 X4.80475 Y5.68692
G01 X4.79089 Y5.70079
G01 X4.75982 Y5.73869
G01 X4.74890 Y5.75497
G01 X4.72581 Y5.79820
G01 X4.71832 Y5.81631
G01 X4.70409 Y5.86322
G01 X4.70028 Y5.88243
G01 X4.69546 Y5.93122
G01 X4.69498 Y5.94102
G04 P0 ( dwell for no time -- G64 should not smooth over this point )
G00 Z5.00000 ( retract )

G00 X4.69498 Y3.89102 ( rapid move to begin. )
G01 F250.00000
( Mill infeed pass 1/1 )
G01 Z-0.05000
G04 P0 ( dwell for no time -- G64 should not smooth over this point )
G01 F500.00000
G01 X4.69498 Y3.89102
G01 X4.69498 Y4.54100
G01 X4.69546 Y4.55081
G01 X4.70028 Y4.59960
G01 X4.70409 Y4.61880
G01 X4.71832 Y4.66572
G01 X4.72581 Y4.68383
G01 X4.74890 Y4.72706
G01 X4.75982 Y4.74334
G01 X4.79089 Y4.78123
G01 X4.80475 Y4.79510
G01 X4.84265 Y4.82619
G01 X4.85896 Y4.83706
G01 X4.90219 Y4.86018
G01 X4.92030 Y4.86767
G01 X4.96719 Y4.88189
G01 X4.98642 Y4.88573
G01 X5.03518 Y4.89053
G01 X5.04499 Y4.89101
G01 X5.94499 Y4.89101
G01 X5.95479 Y4.89053
G01 X6.00356 Y4.88573
G01 X6.02279 Y4.88189
G01 X6.06967 Y4.86767
G01 X6.08779 Y4.86018
G01 X6.13102 Y4.83706
G01 X6.14732 Y4.82619
G01 X6.18519 Y4.79510
G01 X6.19906 Y4.78123
G01 X6.23015 Y4.74334
G01 X6.24105 Y4.72706
G01 X6.26414 Y4.68383
G01 X6.27166 Y4.66572
G01 X6.28588 Y4.61880
G01 X6.28969 Y4.59960
G01 X6.29302 Y4.56602
G01 X8.50696 Y4.56602
G01 X8.51028 Y4.59960
G01 X8.51409 Y4.61880
G01 X8.52832 Y4.66572
G01 X8.53584 Y4.68383
G01 X8.55893 Y4.72706
G01 X8.56982 Y4.74334
G01 X8.60091 Y4.78123
G01 X8.61478 Y4.79510
G01 X8.65265 Y4.82619
G01 X8.66896 Y4.83706
G01 X8.71219 Y4.86018
G01 X8.73030 Y4.86767
G01 X8.77719 Y4.88189
G01 X8.79642 Y4.88573
G01 X8.84518 Y4.89053
G01 X8.85499 Y4.89101
G01 X9.75499 Y4.89101
G01 X9.76479 Y4.89053
G01 X9.81356 Y4.88573
G01 X9.83279 Y4.88189
G01 X9.87968 Y4.86767
G01 X9.89779 Y4.86018
G01 X9.94102 Y4.83706
G01 X9.95732 Y4.82619
G01 X9.99519 Y4.79510
G01 X10.00906 Y4.78123
G01 X10.04015 Y4.74334
G01 X10.05105 Y4.72706
G01 X10.07414 Y4.68383
G01 X10.08166 Y4.66572
G01 X10.09588 Y4.61880
G01 X10.09969 Y4.59960
G01 X10.10302 Y4.56602
G01 X12.31696 Y4.56602
G01 X12.32028 Y4.59960
G01 X12.32409 Y4.61880
G01 X12.33832 Y4.66572
G01 X12.34584 Y4.68383
G01 X12.36893 Y4.72706
G01 X12.37982 Y4.74334
G01 X12.41091 Y4.78123
G01 X12.42478 Y4.79510
G01 X12.46265 Y4.82619
G01 X12.47896 Y4.83706
G01 X12.52219 Y4.86018
G01 X12.54030 Y4.86767
G01 X12.58719 Y4.88189
G01 X12.60642 Y4.88573
G01 X12.65518 Y4.89053
G01 X12.66499 Y4.89101
G01 X13.29501 Y4.89101
G01 X14.60651 Y6.20252
G01 X14.53229 Y6.26345
G01 X14.51843 Y6.27732
G01 X14.44380 Y6.36823
G01 X14.43290 Y6.38453
G01 X14.37746 Y6.48827
G01 X14.36996 Y6.50638
G01 X14.33583 Y6.61892
G01 X14.33199 Y6.63815
G01 X14.32046 Y6.75522
G01 X14.32046 Y6.77480
G01 X14.33199 Y6.89187
G01 X14.33583 Y6.91110
G01 X14.36996 Y7.02365
G01 X14.37746 Y7.04176
G01 X14.43290 Y7.14549
G01 X14.44380 Y7.16180
G01 X14.51843 Y7.25271
G01 X14.53229 Y7.26657
G01 X14.62320 Y7.34120
G01 X14.63951 Y7.35210
G01 X14.74324 Y7.40754
G01 X14.76135 Y7.41504
G01 X14.87390 Y7.44917
G01 X14.89313 Y7.45301
G01 X15.01020 Y7.46454
G01 X15.02978 Y7.46454
G01 X15.14685 Y7.45301
G01 X15.16608 Y7.44917
G01 X15.27862 Y7.41504
G01 X15.29673 Y7.40754
G01 X15.40047 Y7.35210
G01 X15.41677 Y7.34120
G01 X15.50768 Y7.26657
G01 X15.52155 Y7.25271
G01 X15.59617 Y7.16180
G01 X15.60707 Y7.14549
G01 X15.66252 Y7.04176
G01 X15.67001 Y7.02365
G01 X15.70415 Y6.91110
G01 X15.70798 Y6.89187
G01 X15.71952 Y6.77480
G01 X15.71952 Y6.75522
G01 X15.70798 Y6.63815
G01 X15.70415 Y6.61892
G01 X15.67001 Y6.50638
G01 X15.66252 Y6.48827
G01 X15.60707 Y6.38453
G01 X15.59617 Y6.36823
G01 X15.52155 Y6.27732
G01 X15.50768 Y6.26345
G01 X15.41677 Y6.18883
G01 X15.40047 Y6.17793
G01 X15.36999 Y6.16165
G01 X15.36999 Y6.12101
G01 X15.36950 Y6.11123
G01 X15.36470 Y6.06244
G01 X15.36087 Y6.04321
G01 X15.34664 Y5.99632
G01 X15.33915 Y5.97821
G01 X15.31604 Y5.93498
G01 X15.30517 Y5.91870
G01 X15.27408 Y5.88080
G01 X15.26747 Y5.87354
G01 X13.91500 Y4.52104
G01 X13.91500 Y3.89102
G01 X13.91452 Y3.88121
G01 X13.90969 Y3.83244
G01 X13.90588 Y3.81322
G01 X13.89166 Y3.76630
G01 X13.88414 Y3.74819
G01 X13.86105 Y3.70499
G01 X13.85015 Y3.68868
G01 X13.81906 Y3.65081
G01 X13.80519 Y3.63694
G01 X13.76732 Y3.60585
G01 X13.75102 Y3.59495
G01 X13.70779 Y3.57184
G01 X13.68967 Y3.56435
G01 X13.64279 Y3.55012
G01 X13.62356 Y3.54629
G01 X13.57479 Y3.54149
G01 X13.56499 Y3.54100
G01 X12.66499 Y3.54100
G01 X12.65518 Y3.54149
G01 X12.60642 Y3.54629
G01 X12.58719 Y3.55012
G01 X12.54030 Y3.56435
G01 X12.52219 Y3.57184
G01 X12.47896 Y3.59495
G01 X12.46265 Y3.60585
G01 X12.42478 Y3.63694
G01 X12.41091 Y3.65081
G01 X12.37982 Y3.68868
G01 X12.36893 Y3.70499
G01 X12.34584 Y3.74819
G01 X12.33832 Y3.76630
G01 X12.32409 Y3.81322
G01 X12.32028 Y3.83244
G01 X12.31696 Y3.86602
G01 X10.10302 Y3.86602
G01 X10.09969 Y3.83244
G01 X10.09588 Y3.81322
G01 X10.08166 Y3.76630
G01 X10.07414 Y3.74819
G01 X10.05105 Y3.70499
G01 X10.04015 Y3.68868
G01 X10.00906 Y3.65081
G01 X9.99519 Y3.63694
G01 X9.95732 Y3.60585
G01 X9.94102 Y3.59495
G01 X9.89779 Y3.57184
G01 X9.87968 Y3.56435
G01 X9.83279 Y3.55012
G01 X9.81356 Y3.54629
G01 X9.76479 Y3.54149
G01 X9.75499 Y3.54100
G01 X8.85499 Y3.54100
G01 X8.84518 Y3.54149
G01 X8.79642 Y3.54629
G01 X8.77719 Y3.55012
G01 X8.73030 Y3.56435
G01 X8.71219 Y3.57184
G01 X8.66896 Y3.59495
G01 X8.65265 Y3.60585
G01 X8.61478 Y3.63694
G01 X8.60091 Y3.65081
G01 X8.56982 Y3.68868
G01 X8.55893 Y3.70499
G01 X8.53584 Y3.74819
G01 X8.52832 Y3.76630
G01 X8.51409 Y3.81322
G01 X8.51028 Y3.83244
G01 X8.50696 Y3.86602
G01 X6.29302 Y3.86602
G01 X6.28969 Y3.83244
G01 X6.28588 Y3.81322
G01 X6.27166 Y3.76630
G01 X6.26414 Y3.74819
G01 X6.24105 Y3.70499
G01 X6.23015 Y3.68868
G01 X6.19906 Y3.65081
G01 X6.18519 Y3.63694
G01 X6.14732 Y3.60585
G01 X6.13102 Y3.59495
G01 X6.08779 Y3.57184
G01 X6.06967 Y3.56435
G01 X6.02279 Y3.55012
G01 X6.00356 Y3.54629
G01 X5.95479 Y3.54149
G01 X5.94499 Y3.54100
G01 X5.04499 Y3.54100
G01 X5.03518 Y3.54149
G01 X4.98642 Y3.54629
G01 X4.96719 Y3.55012
G01 X4.92030 Y3.56435
G01 X4.90219 Y3.57184
G01 X4.85896 Y3.59495
G01 X4.84265 Y3.60585
G01 X4.80475 Y3.63694
G01 X4.79089 Y3.65081
G01 X4.75982 Y3.68868
G01 X4.74890 Y3.70499
G01 X4.72581 Y3.74819
G01 X4.71832 Y3.76630
G01 X4.70409 Y3.81322
G01 X4.70028 Y3.83244
G01 X4.69546 Y3.88121
G01 X4.69498 Y3.89102
G04 P0 ( dwell for no time -- G64 should not smooth over this point )
G00 Z5.00000 ( retract )

G00 X14.45879 Y6.19622 ( rapid move to begin. )
G01 F250.00000
( Mill infeed pass 1/1 )
G01 Z-0.05000
G04 P0 ( dwell for no time -- G64 should not smooth over this point )
G01 F500.00000
G01 X14.45879 Y6.19622
G01 X14.09940 Y5.83683
G01 X14.07987 Y5.80026
G01 X14.07865 Y5.79810
G01 X14.05269 Y5.75477
G01 X14.05140 Y5.75273
G01 X14.02711 Y5.71634
G01 X14.02569 Y5.71433
G01 X14.02592 Y5.71418
G01 X14.02569 Y5.71433
G01 X13.99618 Y5.67453
G01 X13.99468 Y5.67260
G01 X13.96892 Y5.64120
G01 X13.96730 Y5.63932
G01 X13.93435 Y5.60298
G01 X13.93268 Y5.60120
G01 X13.93293 Y5.60092
G01 X13.93268 Y5.60120
G01 X13.90476 Y5.57328
G01 X13.90298 Y5.57161
G01 X13.86661 Y5.53864
G01 X13.86476 Y5.53704
G01 X13.83352 Y5.51141
G01 X13.83161 Y5.50991
G01 X13.79183 Y5.48039
G01 X13.79204 Y5.48012
G01 X13.79183 Y5.48039
G01 X13.78980 Y5.47897
G01 X13.75325 Y5.45459
G01 X13.75119 Y5.45329
G01 X13.70786 Y5.42731
G01 X13.70568 Y5.42609
G01 X13.66918 Y5.40661
G01 X13.25358 Y4.99101
G01 X13.25673 Y4.98339
G01 X13.25358 Y4.99101
G01 X12.66499 Y4.99101
G01 X12.64538 Y4.99005
G01 X12.59661 Y4.98525
G01 X12.55816 Y4.97760
G01 X12.51127 Y4.96338
G01 X12.47505 Y4.94837
G01 X12.43182 Y4.92525
G01 X12.39923 Y4.90348
G01 X12.36133 Y4.87240
G01 X12.33362 Y4.84466
G01 X12.30253 Y4.80679
G01 X12.28074 Y4.77417
G01 X12.25762 Y4.73097
G01 X12.24264 Y4.69475
G01 X12.23392 Y4.66602
G01 X12.24469 Y4.64961
G01 X12.23392 Y4.66602
G01 X10.18605 Y4.66602
G01 X10.17528 Y4.64961
G01 X10.18605 Y4.66602
G01 X10.17734 Y4.69475
G01 X10.16235 Y4.73097
G01 X10.13924 Y4.77417
G01 X10.11744 Y4.80679
G01 X10.08635 Y4.84466
G01 X10.05864 Y4.87240
G01 X10.02075 Y4.90348
G01 X9.98816 Y4.92525
G01 X9.94493 Y4.94837
G01 X9.90871 Y4.96338
G01 X9.86182 Y4.97760
G01 X9.82336 Y4.98525
G01 X9.77460 Y4.99005
G01 X9.75499 Y4.99101
G01 X8.85499 Y4.99101
G01 X8.83538 Y4.99005
G01 X8.78661 Y4.98525
G01 X8.74816 Y4.97760
G01 X8.70127 Y4.96338
G01 X8.66505 Y4.94837
G01 X8.62182 Y4.92525
G01 X8.58923 Y4.90348
G01 X8.55133 Y4.87240
G01 X8.52362 Y4.84466
G01 X8.49253 Y4.80679
G01 X8.47074 Y4.77417
G01 X8.44762 Y4.73097
G01 X8.43264 Y4.69475
G01 X8.42392 Y4.66602
G01 X8.43342 Y4.65081
G01 X8.42392 Y4.66602
G01 X6.37605 Y4.66602
G01 X6.36528 Y4.64961
G01 X6.37605 Y4.66602
G01 X6.36734 Y4.69475
G01 X6.35235 Y4.73097
G01 X6.32924 Y4.77417
G01 X6.30744 Y4.80679
G01 X6.27635 Y4.84466
G01 X6.24864 Y4.87240
G01 X6.21075 Y4.90348
G01 X6.17816 Y4.92525
G01 X6.13493 Y4.94837
G01 X6.09871 Y4.96338
G01 X6.05182 Y4.97760
G01 X6.01336 Y4.98525
G01 X5.96460 Y4.99005
G01 X5.94499 Y4.99101
G01 X5.04499 Y4.99101
G01 X5.02538 Y4.99005
G01 X4.97661 Y4.98525
G01 X4.93816 Y4.97760
G01 X4.89124 Y4.96338
G01 X4.85505 Y4.94837
G01 X4.81182 Y4.92525
G01 X4.77923 Y4.90348
G01 X4.74131 Y4.87240
G01 X4.71362 Y4.84466
G01 X4.68253 Y4.80679
G01 X4.66074 Y4.77417
G01 X4.63762 Y4.73097
G01 X4.62264 Y4.69475
G01 X4.60841 Y4.64783
G01 X4.60074 Y4.60938
G01 X4.59592 Y4.56061
G01 X4.59498 Y4.54100
G01 X4.59498 Y3.89102
G01 X4.59592 Y3.87141
G01 X4.60074 Y3.82264
G01 X4.60841 Y3.78418
G01 X4.62264 Y3.73729
G01 X4.63762 Y3.70107
G01 X4.66074 Y3.65784
G01 X4.68253 Y3.62523
G01 X4.71362 Y3.58736
G01 X4.74131 Y3.55962
G01 X4.77923 Y3.52853
G01 X4.81182 Y3.50676
G01 X4.85505 Y3.48365
G01 X4.89124 Y3.46866
G01 X4.93816 Y3.45444
G01 X4.97661 Y3.44677
G01 X5.02538 Y3.44197
G01 X5.04499 Y3.44100
G01 X5.94499 Y3.44100
G01 X5.96460 Y3.44197
G01 X6.01336 Y3.44677
G01 X6.05182 Y3.45444
G01 X6.09871 Y3.46866
G01 X6.13493 Y3.48365
G01 X6.17816 Y3.50676
G01 X6.21075 Y3.52853
G01 X6.24864 Y3.55962
G01 X6.27635 Y3.58736
G01 X6.30744 Y3.62523
G01 X6.32924 Y3.65784
G01 X6.35235 Y3.70107
G01 X6.36734 Y3.73729
G01 X6.37605 Y3.76602
G01 X6.36528 Y3.78243
G01 X6.37605 Y3.76602
G01 X8.42392 Y3.76602
G01 X8.43469 Y3.78243
G01 X8.42392 Y3.76602
G01 X8.43264 Y3.73729
G01 X8.44762 Y3.70107
G01 X8.47074 Y3.65784
G01 X8.49253 Y3.62523
G01 X8.52362 Y3.58736
G01 X8.55133 Y3.55962
G01 X8.58923 Y3.52853
G01 X8.62182 Y3.50676
G01 X8.66505 Y3.48365
G01 X8.70127 Y3.46866
G01 X8.74816 Y3.45444
G01 X8.78661 Y3.44677
G01 X8.83538 Y3.44197
G01 X8.85499 Y3.44100
G01 X9.75499 Y3.44100
G01 X9.77460 Y3.44197
G01 X9.82336 Y3.44677
G01 X9.86182 Y3.45444
G01 X9.90871 Y3.46866
G01 X9.94493 Y3.48365
G01 X9.98816 Y3.50676
G01 X10.02075 Y3.52853
G01 X10.05864 Y3.55962
G01 X10.08635 Y3.58736
G01 X10.11744 Y3.62523
G01 X10.13924 Y3.65784
G01 X10.16235 Y3.70107
G01 X10.17734 Y3.73729
G01 X10.18605 Y3.76602
G01 X10.17655 Y3.78124
G01 X10.18605 Y3.76602
G01 X12.23392 Y3.76602
G01 X12.24469 Y3.78243
G01 X12.23392 Y3.76602
G01 X12.24264 Y3.73729
G01 X12.25762 Y3.70107
G01 X12.28074 Y3.65784
G01 X12.30253 Y3.62523
G01 X12.33362 Y3.58736
G01 X12.36133 Y3.55962
G01 X12.39923 Y3.52853
G01 X12.43182 Y3.50676
G01 X12.47505 Y3.48365
G01 X12.51127 Y3.46866
G01 X12.55816 Y3.45444
G01 X12.59661 Y3.44677
G01 X12.64538 Y3.44197
G01 X12.66499 Y3.44100
G01 X13.56499 Y3.44100
G01 X13.58460 Y3.44197
G01 X13.63336 Y3.44677
G01 X13.67182 Y3.45444
G01 X13.71871 Y3.46866
G01 X13.75493 Y3.48365
G01 X13.79816 Y3.50676
G01 X13.83075 Y3.52853
G01 X13.86864 Y3.55962
G01 X13.89635 Y3.58736
G01 X13.92744 Y3.62523
G01 X13.94924 Y3.65784
G01 X13.97235 Y3.70107
G01 X13.98734 Y3.73729
G01 X14.00156 Y3.78418
G01 X14.00923 Y3.82264
G01 X14.01403 Y3.87141
G01 X14.01500 Y3.89102
G01 X14.01500 Y4.47964
G01 X14.00738 Y4.48276
G01 X14.01500 Y4.47964
G01 X15.33819 Y5.80282
G01 X15.35137 Y5.81738
G01 X15.38246 Y5.85525
G01 X15.40425 Y5.88786
G01 X15.42734 Y5.93107
G01 X15.44235 Y5.96729
G01 X15.45658 Y6.01420
G01 X15.46422 Y6.05266
G01 X15.46902 Y6.10143
G01 X15.46915 Y6.10414
G01 X15.46399 Y6.10717
G01 X15.46915 Y6.10414
G01 X15.48020 Y6.11153
G01 X15.57113 Y6.18613
G01 X15.59887 Y6.21387
G01 X15.67347 Y6.30480
G01 X15.69526 Y6.33739
G01 X15.75071 Y6.44112
G01 X15.76569 Y6.47734
G01 X15.79986 Y6.58989
G01 X15.80750 Y6.62835
G01 X15.81903 Y6.74542
G01 X15.81903 Y6.78461
G01 X15.80750 Y6.90168
G01 X15.79986 Y6.94013
G01 X15.76569 Y7.05268
G01 X15.75071 Y7.08890
G01 X15.69526 Y7.19263
G01 X15.67347 Y7.22522
G01 X15.59887 Y7.31615
G01 X15.57113 Y7.34389
G01 X15.48020 Y7.41849
G01 X15.44761 Y7.44028
G01 X15.34388 Y7.49573
G01 X15.30766 Y7.51072
G01 X15.19511 Y7.54488
G01 X15.15665 Y7.55253
G01 X15.03958 Y7.56406
G01 X15.00039 Y7.56406
G01 X14.88332 Y7.55253
G01 X14.84487 Y7.54488
G01 X14.73232 Y7.51072
G01 X14.69610 Y7.49573
G01 X14.59237 Y7.44028
G01 X14.55978 Y7.41849
G01 X14.46885 Y7.34389
G01 X14.44111 Y7.31615
G01 X14.36651 Y7.22522
G01 X14.34472 Y7.19263
G01 X14.28927 Y7.08890
G01 X14.27428 Y7.05268
G01 X14.24012 Y6.94013
G01 X14.23247 Y6.90168
G01 X14.22094 Y6.78461
G01 X14.22094 Y6.74542
G01 X14.23247 Y6.62835
G01 X14.24012 Y6.58989
G01 X14.27428 Y6.47734
G01 X14.28927 Y6.44112
G01 X14.34472 Y6.33739
G01 X14.36651 Y6.30480
G01 X14.44111 Y6.21387
G01 X14.45879 Y6.19622
G01 X14.49478 Y6.19474
G04 P0 ( dwell for no time -- G64 should not smooth over this point )
G00 Z5.00000 ( retract )

G00 X13.93821 Y11.39964 ( rapid move to begin. )
G01 F250.00000
( Mill infeed pass 1/1 )
G01 Z-0.05000
G04 P0 ( dwell for no time -- G64 should not smooth over this point )
G01 F500.00000
G01 X13.93821 Y11.39964
G01 X12.54279 Y10.00421
G01 X12.52961 Y9.98966
G01 X12.49852 Y9.95179
G01 X12.47672 Y9.91917
G01 X12.45363 Y9.87597
G01 X12.43862 Y9.83975
G01 X12.42440 Y9.79283
G01 X12.41675 Y9.75438
G01 X12.41195 Y9.70561
G01 X12.41099 Y9.68600
G01 X12.41099 Y6.96134
G01 X12.41896 Y6.95796
G01 X12.41099 Y6.96134
G01 X12.39923 Y6.95349
G01 X12.36133 Y6.92240
G01 X12.33362 Y6.89467
G01 X12.30253 Y6.85680
G01 X12.28074 Y6.82418
G01 X12.25762 Y6.78095
G01 X12.24264 Y6.74473
G01 X12.23392 Y6.71603
G01 X12.24342 Y6.70081
G01 X12.23392 Y6.71603
G01 X10.18605 Y6.71603
G01 X10.17528 Y6.69962
G01 X10.18605 Y6.71603
G01 X10.17734 Y6.74473
G01 X10.16235 Y6.78095
G01 X10.13924 Y6.82418
G01 X10.11744 Y6.85680
G01 X10.08635 Y6.89467
G01 X10.05864 Y6.92240
G01 X10.02075 Y6.95349
G01 X9.98816 Y6.97526
G01 X9.94493 Y6.99838
G01 X9.90871 Y7.01336
G01 X9.86182 Y7.02759
G01 X9.82336 Y7.03526
G01 X9.77460 Y7.04006
G01 X9.75499 Y7.04102
G01 X8.85499 Y7.04102
G01 X8.83538 Y7.04006
G01 X8.78661 Y7.03526
G01 X8.74816 Y7.02759
G01 X8.70127 Y7.01336
G01 X8.66505 Y6.99838
G01 X8.62182 Y6.97526
G01 X8.58923 Y6.95349
G01 X8.55133 Y6.92240
G01 X8.52362 Y6.89467
G01 X8.49253 Y6.85680
G01 X8.47074 Y6.82418
G01 X8.44762 Y6.78095
G01 X8.43264 Y6.74473
G01 X8.42392 Y6.71603
G01 X8.43342 Y6.70081
G01 X8.42392 Y6.71603
G01 X6.37605 Y6.71603
G01 X6.36528 Y6.69962
G01 X6.37605 Y6.71603
G01 X6.36734 Y6.74473
G01 X6.35235 Y6.78095
G01 X6.32924 Y6.82418
G01 X6.30744 Y6.85680
G01 X6.27635 Y6.89467
G01 X6.24864 Y6.92240
G01 X6.21075 Y6.95349
G01 X6.17816 Y6.97526
G01 X6.13493 Y6.99838
G01 X6.09871 Y7.01336
G01 X6.05182 Y7.02759
G01 X6.01336 Y7.03526
G01 X5.96460 Y7.04006
G01 X5.94499 Y7.04102
G01 X5.04499 Y7.04102
G01 X5.02538 Y7.04006
G01 X4.97661 Y7.03526
G01 X4.93816 Y7.02759
G01 X4.89124 Y7.01336
G01 X4.85505 Y6.99838
G01 X4.81182 Y6.97526
G01 X4.77923 Y6.95349
G01 X4.74131 Y6.92240
G01 X4.71362 Y6.89467
G01 X4.68253 Y6.85680
G01 X4.66074 Y6.82418
G01 X4.63762 Y6.78095
G01 X4.62264 Y6.74473
G01 X4.60841 Y6.69784
G01 X4.60074 Y6.65939
G01 X4.59592 Y6.61062
G01 X4.59498 Y6.59101
G01 X4.59498 Y5.94102
G01 X4.59592 Y5.92142
G01 X4.60074 Y5.87265
G01 X4.60841 Y5.83419
G01 X4.62264 Y5.78728
G01 X4.63762 Y5.75106
G01 X4.66074 Y5.70785
G01 X4.68253 Y5.67524
G01 X4.71362 Y5.63737
G01 X4.74131 Y5.60963
G01 X4.77923 Y5.57854
G01 X4.81182 Y5.55677
G01 X4.85505 Y5.53366
G01 X4.89124 Y5.51865
G01 X4.93816 Y5.50442
G01 X4.97661 Y5.49678
G01 X5.02538 Y5.49198
G01 X5.04499 Y5.49101
G01 X5.94499 Y5.49101
G01 X5.96460 Y5.49198
G01 X6.01336 Y5.49678
G01 X6.05182 Y5.50442
G01 X6.09871 Y5.51865
G01 X6.13493 Y5.53366
G01 X6.17816 Y5.55677
G01 X6.21075 Y5.57854
G01 X6.24864 Y5.60963
G01 X6.27635 Y5.63737
G01 X6.30744 Y5.67524
G01 X6.32924 Y5.70785
G01 X6.35235 Y5.75106
G01 X6.36734 Y5.78728
G01 X6.37608 Y5.81603
G01 X6.36655 Y5.83125
G01 X6.37608 Y5.81603
G01 X8.42390 Y5.81603
G01 X8.43469 Y5.83244
G01 X8.42390 Y5.81603
G01 X8.43264 Y5.78728
G01 X8.44762 Y5.75106
G01 X8.47074 Y5.70785
G01 X8.49253 Y5.67524
G01 X8.52362 Y5.63737
G01 X8.55133 Y5.60963
G01 X8.58923 Y5.57854
G01 X8.62182 Y5.55677
G01 X8.66505 Y5.53366
G01 X8.70127 Y5.51865
G01 X8.74816 Y5.50442
G01 X8.78661 Y5.49678
G01 X8.83538 Y5.49198
G01 X8.85499 Y5.49101
G01 X9.75499 Y5.49101
G01 X9.77460 Y5.49198
G01 X9.82336 Y5.49678
G01 X9.86182 Y5.50442
G01 X9.90871 Y5.51865
G01 X9.94493 Y5.53366
G01 X9.98816 Y5.55677
G01 X10.02075 Y5.57854
G01 X10.05864 Y5.60963
G01 X10.08635 Y5.63737
G01 X10.11744 Y5.67524
G01 X10.13924 Y5.70785
G01 X10.16235 Y5.75106
G01 X10.17734 Y5.78728
G01 X10.18608 Y5.81603
G01 X10.17655 Y5.83125
G01 X10.18608 Y5.81603
G01 X12.23390 Y5.81603
G01 X12.24469 Y5.83244
G01 X12.23390 Y5.81603
G01 X12.24264 Y5.78728
G01 X12.25762 Y5.75106
G01 X12.28074 Y5.70785
G01 X12.30253 Y5.67524
G01 X12.33362 Y5.63737
G01 X12.36133 Y5.60963
G01 X12.39923 Y5.57854
G01 X12.43182 Y5.55677
G01 X12.47505 Y5.53366
G01 X12.51127 Y5.51865
G01 X12.55816 Y5.50442
G01 X12.59661 Y5.49678
G01 X12.64538 Y5.49198
G01 X12.66499 Y5.49101
G01 X13.56499 Y5.49101
G01 X13.58460 Y5.49198
G01 X13.62404 Y5.49586
G01 X13.65752 Y5.51372
G01 X13.69874 Y5.53843
G01 X13.73324 Y5.56145
G01 X13.77103 Y5.58951
G01 X13.80037 Y5.61357
G01 X13.83491 Y5.64489
G01 X13.86110 Y5.67105
G01 X13.89239 Y5.70557
G01 X13.91657 Y5.73506
G01 X13.94461 Y5.77288
G01 X13.96753 Y5.80722
G01 X13.99224 Y5.84844
G01 X14.01015 Y5.88197
G01 X14.01403 Y5.92142
G01 X14.01500 Y5.94102
G01 X14.01500 Y6.59101
G01 X14.01403 Y6.61062
G01 X14.00923 Y6.65939
G01 X14.00156 Y6.69784
G01 X13.98734 Y6.74473
G01 X13.97235 Y6.78095
G01 X13.94924 Y6.82418
G01 X13.92744 Y6.85680
G01 X13.89635 Y6.89467
G01 X13.86864 Y6.92240
G01 X13.83075 Y6.95349
G01 X13.79816 Y6.97526
G01 X13.75493 Y6.99838
G01 X13.71871 Y7.01336
G01 X13.67182 Y7.02759
G01 X13.63336 Y7.03526
G01 X13.58460 Y7.04006
G01 X13.56499 Y7.04102
G01 X13.31099 Y7.04102
G01 X13.28183 Y7.01194
G01 X13.31099 Y7.04102
G01 X13.31099 Y9.49961
G01 X13.30337 Y9.50276
G01 X13.31099 Y9.49961
G01 X14.87128 Y11.05991
G01 X14.86775 Y11.06949
G01 X14.87128 Y11.05991
G01 X14.88332 Y11.05750
G01 X15.00039 Y11.04597
G01 X15.03958 Y11.04597
G01 X15.15665 Y11.05750
G01 X15.19511 Y11.06514
G01 X15.30766 Y11.09931
G01 X15.34388 Y11.11429
G01 X15.44761 Y11.16974
G01 X15.48020 Y11.19153
G01 X15.57113 Y11.26613
G01 X15.59887 Y11.29387
G01 X15.62579 Y11.32669
G01 X15.64626 Y11.38389
G01 X15.65863 Y11.42460
G01 X15.68749 Y11.53984
G01 X15.69404 Y11.57269
G01 X15.71113 Y11.68788
G01 X15.71395 Y11.71635
G01 X15.71962 Y11.83149
G01 X15.71962 Y11.85851
G01 X15.71395 Y11.97370
G01 X15.71113 Y12.00218
G01 X15.69404 Y12.11736
G01 X15.68749 Y12.15021
G01 X15.65863 Y12.26545
G01 X15.64626 Y12.30616
G01 X15.62582 Y12.36331
G01 X15.61093 Y12.38145
G01 X15.60059 Y12.39285
G01 X15.56780 Y12.42564
G01 X15.55645 Y12.43593
G01 X15.48020 Y12.49849
G01 X15.44761 Y12.52028
G01 X15.34388 Y12.57573
G01 X15.30766 Y12.59072
G01 X15.19511 Y12.62488
G01 X15.15665 Y12.63253
G01 X15.03958 Y12.64406
G01 X15.00039 Y12.64406
G01 X14.88332 Y12.63253
G01 X14.84487 Y12.62488
G01 X14.73232 Y12.59072
G01 X14.69610 Y12.57573
G01 X14.59237 Y12.52028
G01 X14.55978 Y12.49849
G01 X14.46885 Y12.42389
G01 X14.44111 Y12.39615
G01 X14.36651 Y12.30522
G01 X14.35968 Y12.29501
G01 X14.36397 Y12.28574
G01 X14.35968 Y12.29501
G01 X14.18137 Y12.29501
G01 X14.17822 Y12.28739
G01 X14.18137 Y12.29501
G01 X14.01500 Y12.46141
G01 X14.00743 Y12.45826
G01 X14.01500 Y12.46141
G01 X14.01500 Y12.92300
G01 X14.01403 Y12.94261
G01 X14.00923 Y12.99138
G01 X14.00156 Y13.02983
G01 X13.98734 Y13.07675
G01 X13.97235 Y13.11297
G01 X13.94924 Y13.15617
G01 X13.92744 Y13.18879
G01 X13.89635 Y13.22666
G01 X13.86864 Y13.25440
G01 X13.83075 Y13.28548
G01 X13.79816 Y13.30725
G01 X13.75493 Y13.33037
G01 X13.71871 Y13.34538
G01 X13.67182 Y13.35963
G01 X13.63336 Y13.36725
G01 X13.58460 Y13.37207
G01 X13.56499 Y13.37304
G01 X12.66499 Y13.37304
G01 X12.64538 Y13.37207
G01 X12.59661 Y13.36725
G01 X12.55816 Y13.35963
G01 X12.51127 Y13.34538
G01 X12.47505 Y13.33037
G01 X12.43182 Y13.30725
G01 X12.39923 Y13.28548
G01 X12.36133 Y13.25440
G01 X12.33362 Y13.22666
G01 X12.30253 Y13.18879
G01 X12.29331 Y13.17502
G01 X12.29753 Y13.16588
G01 X12.29331 Y13.17502
G01 X10.12666 Y13.17502
G01 X10.12245 Y13.16588
G01 X10.12666 Y13.17502
G01 X10.11744 Y13.18879
G01 X10.08635 Y13.22666
G01 X10.05864 Y13.25440
G01 X10.02075 Y13.28548
G01 X9.98816 Y13.30725
G01 X9.94493 Y13.33037
G01 X9.90871 Y13.34538
G01 X9.86182 Y13.35963
G01 X9.82336 Y13.36725
G01 X9.77460 Y13.37207
G01 X9.75499 Y13.37304
G01 X8.85499 Y13.37304
G01 X8.83538 Y13.37207
G01 X8.78661 Y13.36725
G01 X8.74816 Y13.35963
G01 X8.70127 Y13.34538
G01 X8.66505 Y13.33037
G01 X8.62182 Y13.30725
G01 X8.58923 Y13.28548
G01 X8.55133 Y13.25440
G01 X8.52362 Y13.22666
G01 X8.49253 Y13.18879
G01 X8.48331 Y13.17502
G01 X8.48753 Y13.16588
G01 X8.48331 Y13.17502
G01 X6.31666 Y13.17502
G01 X6.31245 Y13.16588
G01 X6.31666 Y13.17502
G01 X6.30744 Y13.18879
G01 X6.27635 Y13.22666
G01 X6.24864 Y13.25440
G01 X6.21075 Y13.28548
G01 X6.17816 Y13.30725
G01 X6.13493 Y13.33037
G01 X6.09871 Y13.34538
G01 X6.05182 Y13.35963
G01 X6.01336 Y13.36725
G01 X5.96460 Y13.37207
G01 X5.94499 Y13.37304
G01 X5.04499 Y13.37304
G01 X5.02538 Y13.37207
G01 X4.97661 Y13.36725
G01 X4.93816 Y13.35963
G01 X4.89124 Y13.34538
G01 X4.85505 Y13.33037
G01 X4.81182 Y13.30725
G01 X4.77923 Y13.28548
G01 X4.74131 Y13.25440
G01 X4.71362 Y13.22666
G01 X4.68253 Y13.18879
G01 X4.66074 Y13.15617
G01 X4.63762 Y13.11297
G01 X4.62264 Y13.07675
G01 X4.60841 Y13.02983
G01 X4.60074 Y12.99138
G01 X4.59592 Y12.94261
G01 X4.59498 Y12.92300
G01 X4.59498 Y12.27302
G01 X4.59592 Y12.25341
G01 X4.60074 Y12.20464
G01 X4.60841 Y12.16618
G01 X4.62264 Y12.11929
G01 X4.63762 Y12.08307
G01 X4.66074 Y12.03984
G01 X4.68253 Y12.00723
G01 X4.71362 Y11.96936
G01 X4.74131 Y11.94162
G01 X4.77923 Y11.91053
G01 X4.81182 Y11.88876
G01 X4.85505 Y11.86565
G01 X4.89124 Y11.85066
G01 X4.93816 Y11.83644
G01 X4.97661 Y11.82877
G01 X5.02538 Y11.82397
G01 X5.04499 Y11.82300
G01 X5.94499 Y11.82300
G01 X5.96460 Y11.82397
G01 X6.01336 Y11.82877
G01 X6.05182 Y11.83644
G01 X6.09871 Y11.85066
G01 X6.13493 Y11.86565
G01 X6.17816 Y11.88876
G01 X6.21075 Y11.91053
G01 X6.24864 Y11.94162
G01 X6.27635 Y11.96936
G01 X6.30744 Y12.00723
G01 X6.32924 Y12.03984
G01 X6.35235 Y12.08307
G01 X6.36734 Y12.11929
G01 X6.38156 Y12.16618
G01 X6.38923 Y12.20464
G01 X6.39403 Y12.25341
G01 X6.39500 Y12.27302
G01 X6.39500 Y12.27502
G01 X6.37541 Y12.29839
G01 X6.39500 Y12.27502
G01 X8.40498 Y12.27502
G01 X8.42456 Y12.29839
G01 X8.40498 Y12.27502
G01 X8.40498 Y12.27302
G01 X8.40594 Y12.25341
G01 X8.41074 Y12.20464
G01 X8.41841 Y12.16618
G01 X8.43264 Y12.11929
G01 X8.44762 Y12.08307
G01 X8.47074 Y12.03984
G01 X8.49253 Y12.00723
G01 X8.52362 Y11.96936
G01 X8.55133 Y11.94162
G01 X8.58923 Y11.91053
G01 X8.62182 Y11.88876
G01 X8.66505 Y11.86565
G01 X8.70127 Y11.85066
G01 X8.74816 Y11.83644
G01 X8.78661 Y11.82877
G01 X8.83538 Y11.82397
G01 X8.85499 Y11.82300
G01 X9.75499 Y11.82300
G01 X9.77460 Y11.82397
G01 X9.82336 Y11.82877
G01 X9.86182 Y11.83644
G01 X9.90871 Y11.85066
G01 X9.94493 Y11.86565
G01 X9.98816 Y11.88876
G01 X10.02075 Y11.91053
G01 X10.05864 Y11.94162
G01 X10.08635 Y11.96936
G01 X10.11744 Y12.00723
G01 X10.13924 Y12.03984
G01 X10.16235 Y12.08307
G01 X10.17734 Y12.11929
G01 X10.19156 Y12.16618
G01 X10.19923 Y12.20464
G01 X10.20403 Y12.25341
G01 X10.20500 Y12.27302
G01 X10.20500 Y12.27502
G01 X10.18541 Y12.29839
G01 X10.20500 Y12.27502
G01 X12.21498 Y12.27502
G01 X12.23718 Y12.30012
G01 X12.21498 Y12.27502
G01 X12.21498 Y12.27302
G01 X12.21594 Y12.25341
G01 X12.22074 Y12.20464
G01 X12.22841 Y12.16618
G01 X12.24264 Y12.11929
G01 X12.25762 Y12.08307
G01 X12.28074 Y12.03984
G01 X12.30253 Y12.00723
G01 X12.33362 Y11.96936
G01 X12.36133 Y11.94162
G01 X12.39923 Y11.91053
G01 X12.43182 Y11.88876
G01 X12.47505 Y11.86565
G01 X12.51127 Y11.85066
G01 X12.55816 Y11.83644
G01 X12.59661 Y11.82877
G01 X12.64538 Y11.82397
G01 X12.66499 Y11.82300
G01 X13.38058 Y11.82300
G01 X13.38358 Y11.83039
G01 X13.38058 Y11.82300
G01 X13.67677 Y11.52681
G01 X13.69130 Y11.51363
G01 X13.72920 Y11.48254
G01 X13.76179 Y11.46077
G01 X13.80502 Y11.43766
G01 X13.84124 Y11.42265
G01 X13.88815 Y11.40842
G01 X13.92658 Y11.40078
G01 X13.93821 Y11.39964
G01 X14.03936 Y11.42829
G04 P0 ( dwell for no time -- G64 should not smooth over this point )
G00 Z5.00000 ( retract )

G00 X13.98061 Y14.15300 ( rapid move to begin. )
G01 F250.00000
( Mill infeed pass 1/1 )
G01 Z-0.05000
G04 P0 ( dwell for no time -- G64 should not smooth over this point )
G01 F500.00000
G01 X13.98061 Y14.15300
G01 X15.62335 Y12.51025
G01 X15.63585 Y12.49892
G01 X15.63763 Y12.49722
G01 X15.67217 Y12.46268
G01 X15.67387 Y12.46090
G01 X15.68520 Y12.44840
G01 X15.71997 Y12.41363
G01 X15.72312 Y12.41543
G01 X15.71997 Y12.41363
G01 X15.71997 Y12.39697
G01 X15.74083 Y12.33873
G01 X15.74159 Y12.33641
G01 X15.75467 Y12.29334
G01 X15.75536 Y12.29095
G01 X15.78479 Y12.17332
G01 X15.78533 Y12.17096
G01 X15.79236 Y12.13570
G01 X15.79264 Y12.13578
G01 X15.79236 Y12.13570
G01 X15.79277 Y12.13326
G01 X15.81024 Y12.01566
G01 X15.81052 Y12.01322
G01 X15.81360 Y11.98231
G01 X15.81378 Y11.97985
G01 X15.81954 Y11.86220
G01 X15.81962 Y11.85976
G01 X15.81997 Y11.85976
G01 X15.81997 Y12.45506
G01 X13.91500 Y14.36003
G01 X13.91500 Y14.32302
G01 X13.91452 Y14.31322
G01 X13.90969 Y14.26443
G01 X13.90588 Y14.24522
G01 X13.89166 Y14.19831
G01 X13.88414 Y14.18020
G01 X13.86105 Y14.13697
G01 X13.85015 Y14.12069
G01 X13.81906 Y14.08279
G01 X13.80519 Y14.06892
G01 X13.76732 Y14.03783
G01 X13.75102 Y14.02696
G01 X13.70779 Y14.00385
G01 X13.68967 Y13.99635
G01 X13.64279 Y13.98216
G01 X13.62356 Y13.97830
G01 X13.57479 Y13.97349
G01 X13.56499 Y13.97301
G01 X12.66499 Y13.97301
G01 X12.65518 Y13.97349
G01 X12.60642 Y13.97830
G01 X12.58719 Y13.98216
G01 X12.54030 Y13.99635
G01 X12.52219 Y14.00385
G01 X12.47896 Y14.02696
G01 X12.46265 Y14.03783
G01 X12.42478 Y14.06892
G01 X12.41091 Y14.08279
G01 X12.37982 Y14.12069
G01 X12.36893 Y14.13697
G01 X12.34584 Y14.18020
G01 X12.33832 Y14.19831
G01 X12.32409 Y14.24522
G01 X12.32028 Y14.26443
G01 X12.31546 Y14.31322
G01 X12.31498 Y14.32302
G01 X12.31498 Y14.42503
G01 X10.10500 Y14.42503
G01 X10.10500 Y14.32302
G01 X10.10452 Y14.31322
G01 X10.09969 Y14.26443
G01 X10.09588 Y14.24522
G01 X10.08166 Y14.19831
G01 X10.07414 Y14.18020
G01 X10.05105 Y14.13697
G01 X10.04015 Y14.12069
G01 X10.00906 Y14.08279
G01 X9.99519 Y14.06892
G01 X9.95732 Y14.03783
G01 X9.94102 Y14.02696
G01 X9.89779 Y14.00385
G01 X9.87968 Y13.99635
G01 X9.83279 Y13.98216
G01 X9.81356 Y13.97830
G01 X9.76479 Y13.97349
G01 X9.75499 Y13.97301
G01 X8.85499 Y13.97301
G01 X8.84518 Y13.97349
G01 X8.79642 Y13.97830
G01 X8.77719 Y13.98216
G01 X8.73030 Y13.99635
G01 X8.71219 Y14.00385
G01 X8.66896 Y14.02696
G01 X8.65265 Y14.03783
G01 X8.61478 Y14.06892
G01 X8.60091 Y14.08279
G01 X8.56982 Y14.12069
G01 X8.55893 Y14.13697
G01 X8.53584 Y14.18020
G01 X8.52832 Y14.19831
G01 X8.51409 Y14.24522
G01 X8.51028 Y14.26443
G01 X8.50546 Y14.31322
G01 X8.50498 Y14.32302
G01 X8.50498 Y14.42503
G01 X6.29500 Y14.42503
G01 X6.29500 Y14.32302
G01 X6.29452 Y14.31322
G01 X6.28969 Y14.26443
G01 X6.28588 Y14.24522
G01 X6.27166 Y14.19831
G01 X6.26414 Y14.18020
G01 X6.24105 Y14.13697
G01 X6.23015 Y14.12069
G01 X6.19906 Y14.08279
G01 X6.18519 Y14.06892
G01 X6.14732 Y14.03783
G01 X6.13102 Y14.02696
G01 X6.08779 Y14.00385
G01 X6.06967 Y13.99635
G01 X6.02279 Y13.98216
G01 X6.00356 Y13.97830
G01 X5.95479 Y13.97349
G01 X5.94499 Y13.97301
G01 X5.04499 Y13.97301
G01 X5.03518 Y13.97349
G01 X4.98642 Y13.97830
G01 X4.96719 Y13.98216
G01 X4.92030 Y13.99635
G01 X4.90219 Y14.00385
G01 X4.85896 Y14.02696
G01 X4.84265 Y14.03783
G01 X4.80475 Y14.06892
G01 X4.79089 Y14.08279
G01 X4.75982 Y14.12069
G01 X4.74890 Y14.13697
G01 X4.72581 Y14.18020
G01 X4.71832 Y14.19831
G01 X4.70409 Y14.24522
G01 X4.70028 Y14.26443
G01 X4.69546 Y14.31322
G01 X4.69498 Y14.32302
G01 X4.69498 Y14.97301
G01 X4.69546 Y14.98281
G01 X4.70028 Y15.03158
G01 X4.70409 Y15.05081
G01 X4.71832 Y15.09772
G01 X4.72581 Y15.11583
G01 X4.74890 Y15.15906
G01 X4.75982 Y15.17535
G01 X4.79089 Y15.21322
G01 X4.80475 Y15.22709
G01 X4.84265 Y15.25818
G01 X4.85896 Y15.26907
G01 X4.90219 Y15.29221
G01 X4.92030 Y15.29968
G01 X4.96719 Y15.31390
G01 X4.98642 Y15.31774
G01 X5.03518 Y15.32254
G01 X5.04499 Y15.32305
G01 X5.94499 Y15.32305
G01 X5.95479 Y15.32254
G01 X6.00356 Y15.31774
G01 X6.02279 Y15.31390
G01 X6.06967 Y15.29968
G01 X6.08779 Y15.29221
G01 X6.13102 Y15.26907
G01 X6.14732 Y15.25818
G01 X6.18519 Y15.22709
G01 X6.19906 Y15.21322
G01 X6.23015 Y15.17535
G01 X6.24105 Y15.15906
G01 X6.25924 Y15.12503
G01 X8.54074 Y15.12503
G01 X8.55893 Y15.15906
G01 X8.56982 Y15.17535
G01 X8.60091 Y15.21322
G01 X8.61478 Y15.22709
G01 X8.65265 Y15.25818
G01 X8.66896 Y15.26907
G01 X8.71219 Y15.29221
G01 X8.73030 Y15.29968
G01 X8.77719 Y15.31390
G01 X8.79642 Y15.31774
G01 X8.84518 Y15.32254
G01 X8.85499 Y15.32305
G01 X9.75499 Y15.32305
G01 X9.76479 Y15.32254
G01 X9.81356 Y15.31774
G01 X9.83279 Y15.31390
G01 X9.87968 Y15.29968
G01 X9.89779 Y15.29221
G01 X9.94102 Y15.26907
G01 X9.95732 Y15.25818
G01 X9.99519 Y15.22709
G01 X10.00906 Y15.21322
G01 X10.04015 Y15.17535
G01 X10.05105 Y15.15906
G01 X10.06924 Y15.12503
G01 X12.35074 Y15.12503
G01 X12.36893 Y15.15906
G01 X12.37982 Y15.17535
G01 X12.41091 Y15.21322
G01 X12.42478 Y15.22709
G01 X12.46265 Y15.25818
G01 X12.47896 Y15.26907
G01 X12.52219 Y15.29221
G01 X12.54030 Y15.29968
G01 X12.58719 Y15.31390
G01 X12.60642 Y15.31774
G01 X12.65518 Y15.32254
G01 X12.66499 Y15.32305
G01 X13.56499 Y15.32305
G01 X13.57479 Y15.32254
G01 X13.62356 Y15.31774
G01 X13.64279 Y15.31390
G01 X13.68967 Y15.29968
G01 X13.70779 Y15.29221
G01 X13.75102 Y15.26907
G01 X13.76732 Y15.25818
G01 X13.80519 Y15.22709
G01 X13.81906 Y15.21322
G01 X13.85015 Y15.17535
G01 X13.86105 Y15.15906
G01 X13.87924 Y15.12503
G01 X13.99498 Y15.12503
G01 X14.00476 Y15.12455
G01 X14.05356 Y15.11975
G01 X14.07278 Y15.11591
G01 X14.11967 Y15.10169
G01 X14.13778 Y15.09419
G01 X14.18101 Y15.07110
G01 X14.19729 Y15.06021
G01 X14.23519 Y15.02914
G01 X14.24246 Y15.02251
G01 X16.41746 Y12.84751
G01 X16.42406 Y12.84025
G01 X16.45515 Y12.80235
G01 X16.46602 Y12.78607
G01 X16.48914 Y12.74284
G01 X16.49663 Y12.72473
G01 X16.51085 Y12.67784
G01 X16.51469 Y12.65861
G01 X16.51949 Y12.60982
G01 X16.51997 Y12.60002
G01 X16.51997 Y10.45501
G01 X16.51949 Y10.44523
G01 X16.51469 Y10.39644
G01 X16.51085 Y10.37724
G01 X16.49663 Y10.33032
G01 X16.48914 Y10.31221
G01 X16.46602 Y10.26898
G01 X16.45515 Y10.25270
G01 X16.42406 Y10.21480
G01 X16.41746 Y10.20754
G01 X15.69412 Y9.48417
G01 X15.70415 Y9.45110
G01 X15.70798 Y9.43187
G01 X15.71952 Y9.31480
G01 X15.71952 Y9.29522
G01 X15.70798 Y9.17815
G01 X15.70415 Y9.15892
G01 X15.67001 Y9.04638
G01 X15.66252 Y9.02827
G01 X15.60707 Y8.92453
G01 X15.59617 Y8.90823
G01 X15.52155 Y8.81732
G01 X15.50768 Y8.80345
G01 X15.41677 Y8.72883
G01 X15.40047 Y8.71793
G01 X15.29673 Y8.66248
G01 X15.27862 Y8.65499
G01 X15.16608 Y8.62085
G01 X15.14685 Y8.61702
G01 X15.02978 Y8.60548
G01 X15.01020 Y8.60548
G01 X14.89313 Y8.61702
G01 X14.87390 Y8.62085
G01 X14.76135 Y8.65499
G01 X14.74324 Y8.66248
G01 X14.63951 Y8.71793
G01 X14.62320 Y8.72883
G01 X14.53229 Y8.80345
G01 X14.51843 Y8.81732
G01 X14.44380 Y8.90823
G01 X14.43290 Y8.92453
G01 X14.37746 Y9.02827
G01 X14.36996 Y9.04638
G01 X14.33583 Y9.15892
G01 X14.33199 Y9.17815
G01 X14.32046 Y9.29522
G01 X14.32046 Y9.31480
G01 X14.33199 Y9.43187
G01 X14.33583 Y9.45110
G01 X14.36996 Y9.56365
G01 X14.37746 Y9.58176
G01 X14.43290 Y9.68549
G01 X14.44380 Y9.70180
G01 X14.51843 Y9.79271
G01 X14.53229 Y9.80657
G01 X14.62320 Y9.88120
G01 X14.63951 Y9.89210
G01 X14.74324 Y9.94754
G01 X14.76135 Y9.95504
G01 X14.87390 Y9.98917
G01 X14.89313 Y9.99301
G01 X15.01020 Y10.00454
G01 X15.02978 Y10.00454
G01 X15.14685 Y9.99301
G01 X15.16608 Y9.98917
G01 X15.19915 Y9.97914
G01 X15.81997 Y10.59999
G01 X15.81997 Y11.85976
G01 X15.81962 Y11.85976
G01 X15.81962 Y11.83027
G01 X15.81954 Y11.82780
G01 X15.81378 Y11.71020
G01 X15.81360 Y11.70774
G01 X15.81052 Y11.67683
G01 X15.81024 Y11.67439
G01 X15.79277 Y11.55679
G01 X15.79236 Y11.55435
G01 X15.79277 Y11.55427
G01 X15.79236 Y11.55435
G01 X15.78533 Y11.51909
G01 X15.78479 Y11.51673
G01 X15.75536 Y11.39910
G01 X15.75467 Y11.39672
G01 X15.74159 Y11.35364
G01 X15.74083 Y11.35133
G01 X15.71997 Y11.29308
G01 X15.71997 Y10.64142
G01 X15.72759 Y10.63827
G01 X15.71997 Y10.64142
G01 X15.16869 Y10.09011
G01 X15.17222 Y10.08054
G01 X15.16869 Y10.09011
G01 X15.15665 Y10.09253
G01 X15.03958 Y10.10406
G01 X15.00039 Y10.10406
G01 X14.88332 Y10.09253
G01 X14.84487 Y10.08488
G01 X14.73232 Y10.05072
G01 X14.69610 Y10.03573
G01 X14.59237 Y9.98028
G01 X14.55978 Y9.95849
G01 X14.46885 Y9.88389
G01 X14.44111 Y9.85615
G01 X14.36651 Y9.76522
G01 X14.34472 Y9.73263
G01 X14.28927 Y9.62890
G01 X14.27428 Y9.59268
G01 X14.24012 Y9.48013
G01 X14.23247 Y9.44168
G01 X14.22094 Y9.32461
G01 X14.22094 Y9.28542
G01 X14.23247 Y9.16835
G01 X14.24012 Y9.12989
G01 X14.27428 Y9.01735
G01 X14.28927 Y8.98112
G01 X14.34472 Y8.87739
G01 X14.36651 Y8.84480
G01 X14.44111 Y8.75387
G01 X14.46885 Y8.72613
G01 X14.55978 Y8.65153
G01 X14.59237 Y8.62974
G01 X14.69610 Y8.57429
G01 X14.73232 Y8.55931
G01 X14.84487 Y8.52514
G01 X14.88332 Y8.51750
G01 X15.00039 Y8.50597
G01 X15.03958 Y8.50597
G01 X15.15665 Y8.51750
G01 X15.19511 Y8.52514
G01 X15.30766 Y8.55931
G01 X15.34388 Y8.57429
G01 X15.44761 Y8.62974
G01 X15.48020 Y8.65153
G01 X15.57113 Y8.72613
G01 X15.59887 Y8.75387
G01 X15.67347 Y8.84480
G01 X15.69526 Y8.87739
G01 X15.75071 Y8.98112
G01 X15.76569 Y9.01735
G01 X15.79986 Y9.12989
G01 X15.80750 Y9.16835
G01 X15.81903 Y9.28542
G01 X15.81903 Y9.32461
G01 X15.80750 Y9.44168
G01 X15.80509 Y9.45374
G01 X15.79551 Y9.45725
G01 X15.80509 Y9.45374
G01 X16.48817 Y10.13682
G01 X16.50135 Y10.15138
G01 X16.53244 Y10.18925
G01 X16.55424 Y10.22186
G01 X16.57732 Y10.26507
G01 X16.59234 Y10.30129
G01 X16.60656 Y10.34820
G01 X16.61421 Y10.38666
G01 X16.61901 Y10.43543
G01 X16.61997 Y10.45501
G01 X16.61997 Y12.60002
G01 X16.61901 Y12.61962
G01 X16.61421 Y12.66839
G01 X16.60656 Y12.70685
G01 X16.59234 Y12.75376
G01 X16.57732 Y12.78998
G01 X16.55424 Y12.83319
G01 X16.53244 Y12.86580
G01 X16.50135 Y12.90367
G01 X16.48817 Y12.91823
G01 X14.31317 Y15.09323
G01 X14.29861 Y15.10644
G01 X14.26074 Y15.13750
G01 X14.22813 Y15.15929
G01 X14.18492 Y15.18238
G01 X14.14870 Y15.19739
G01 X14.10179 Y15.21162
G01 X14.06333 Y15.21926
G01 X14.01457 Y15.22409
G01 X13.99498 Y15.22505
G01 X13.93664 Y15.22505
G01 X13.93346 Y15.21802
G01 X13.93664 Y15.22505
G01 X13.92744 Y15.23880
G01 X13.89635 Y15.27669
G01 X13.86864 Y15.30440
G01 X13.83075 Y15.33549
G01 X13.79816 Y15.35726
G01 X13.75493 Y15.38038
G01 X13.71871 Y15.39536
G01 X13.67182 Y15.40959
G01 X13.63336 Y15.41728
G01 X13.58460 Y15.42206
G01 X13.56499 Y15.42302
G01 X12.66499 Y15.42302
G01 X12.64538 Y15.42206
G01 X12.59661 Y15.41728
G01 X12.55816 Y15.40959
G01 X12.51127 Y15.39536
G01 X12.47505 Y15.38038
G01 X12.43182 Y15.35726
G01 X12.39923 Y15.33549
G01 X12.36133 Y15.30440
G01 X12.33362 Y15.27669
G01 X12.30253 Y15.23880
G01 X12.29334 Y15.22505
G01 X12.29753 Y15.21588
G01 X12.29334 Y15.22505
G01 X10.12664 Y15.22505
G01 X10.12245 Y15.21588
G01 X10.12664 Y15.22505
G01 X10.11744 Y15.23880
G01 X10.08635 Y15.27669
G01 X10.05864 Y15.30440
G01 X10.02075 Y15.33549
G01 X9.98816 Y15.35726
G01 X9.94493 Y15.38038
G01 X9.90871 Y15.39536
G01 X9.86182 Y15.40959
G01 X9.82336 Y15.41728
G01 X9.77460 Y15.42206
G01 X9.75499 Y15.42302
G01 X8.85499 Y15.42302
G01 X8.83538 Y15.42206
G01 X8.78661 Y15.41728
G01 X8.74816 Y15.40959
G01 X8.70127 Y15.39536
G01 X8.66505 Y15.38038
G01 X8.62182 Y15.35726
G01 X8.58923 Y15.33549
G01 X8.55133 Y15.30440
G01 X8.52362 Y15.27669
G01 X8.49253 Y15.23880
G01 X8.48334 Y15.22505
G01 X8.48753 Y15.21588
G01 X8.48334 Y15.22505
G01 X6.31664 Y15.22505
G01 X6.31245 Y15.21588
G01 X6.31664 Y15.22505
G01 X6.30744 Y15.23880
G01 X6.27635 Y15.27669
G01 X6.24864 Y15.30440
G01 X6.21075 Y15.33549
G01 X6.17816 Y15.35726
G01 X6.13493 Y15.38038
G01 X6.09871 Y15.39536
G01 X6.05182 Y15.40959
G01 X6.01336 Y15.41728
G01 X5.96460 Y15.42206
G01 X5.94499 Y15.42302
G01 X5.04499 Y15.42302
G01 X5.02538 Y15.42206
G01 X4.97661 Y15.41728
G01 X4.93816 Y15.40959
G01 X4.89124 Y15.39536
G01 X4.85505 Y15.38038
G01 X4.81182 Y15.35726
G01 X4.77923 Y15.33549
G01 X4.74131 Y15.30440
G01 X4.71362 Y15.27669
G01 X4.68253 Y15.23880
G01 X4.66074 Y15.20618
G01 X4.63762 Y15.16295
G01 X4.62264 Y15.12676
G01 X4.60841 Y15.07984
G01 X4.60074 Y15.04139
G01 X4.59592 Y14.99264
G01 X4.59498 Y14.97301
G01 X4.59498 Y14.32302
G01 X4.59592 Y14.30342
G01 X4.60074 Y14.25465
G01 X4.60841 Y14.21619
G01 X4.62264 Y14.16928
G01 X4.63762 Y14.13306
G01 X4.66074 Y14.08985
G01 X4.68253 Y14.05724
G01 X4.71362 Y14.01937
G01 X4.74131 Y13.99166
G01 X4.77923 Y13.96054
G01 X4.81182 Y13.93877
G01 X4.85505 Y13.91566
G01 X4.89124 Y13.90065
G01 X4.93816 Y13.88645
G01 X4.97661 Y13.87878
G01 X5.02538 Y13.87400
G01 X5.04499 Y13.87304
G01 X5.94499 Y13.87304
G01 X5.96460 Y13.87400
G01 X6.01336 Y13.87878
G01 X6.05182 Y13.88645
G01 X6.09871 Y13.90065
G01 X6.13493 Y13.91566
G01 X6.17816 Y13.93877
G01 X6.21075 Y13.96054
G01 X6.24864 Y13.99166
G01 X6.27635 Y14.01937
G01 X6.30744 Y14.05724
G01 X6.32924 Y14.08985
G01 X6.35235 Y14.13306
G01 X6.36734 Y14.16928
G01 X6.38156 Y14.21619
G01 X6.38923 Y14.25465
G01 X6.39403 Y14.30342
G01 X6.39500 Y14.32302
G01 X6.39500 Y14.32503
G01 X6.37541 Y14.34840
G01 X6.39500 Y14.32503
G01 X8.40498 Y14.32503
G01 X8.42456 Y14.34840
G01 X8.40498 Y14.32503
G01 X8.40498 Y14.32302
G01 X8.40594 Y14.30342
G01 X8.41074 Y14.25465
G01 X8.41841 Y14.21619
G01 X8.43264 Y14.16928
G01 X8.44762 Y14.13306
G01 X8.47074 Y14.08985
G01 X8.49253 Y14.05724
G01 X8.52362 Y14.01937
G01 X8.55133 Y13.99166
G01 X8.58923 Y13.96054
G01 X8.62182 Y13.93877
G01 X8.66505 Y13.91566
G01 X8.70127 Y13.90065
G01 X8.74816 Y13.88645
G01 X8.78661 Y13.87878
G01 X8.83538 Y13.87400
G01 X8.85499 Y13.87304
G01 X9.75499 Y13.87304
G01 X9.77460 Y13.87400
G01 X9.82336 Y13.87878
G01 X9.86182 Y13.88645
G01 X9.90871 Y13.90065
G01 X9.94493 Y13.91566
G01 X9.98816 Y13.93877
G01 X10.02075 Y13.96054
G01 X10.05864 Y13.99166
G01 X10.08635 Y14.01937
G01 X10.11744 Y14.05724
G01 X10.13924 Y14.08985
G01 X10.16235 Y14.13306
G01 X10.17734 Y14.16928
G01 X10.19156 Y14.21619
G01 X10.19923 Y14.25465
G01 X10.20403 Y14.30342
G01 X10.20500 Y14.32302
G01 X10.20500 Y14.32503
G01 X10.18541 Y14.34840
G01 X10.20500 Y14.32503
G01 X12.21498 Y14.32503
G01 X12.23456 Y14.34840
G01 X12.21498 Y14.32503
G01 X12.21498 Y14.32302
G01 X12.21594 Y14.30342
G01 X12.22074 Y14.25465
G01 X12.22841 Y14.21619
G01 X12.24264 Y14.16928
G01 X12.25762 Y14.13306
G01 X12.28074 Y14.08985
G01 X12.30253 Y14.05724
G01 X12.33362 Y14.01937
G01 X12.36133 Y13.99166
G01 X12.39923 Y13.96054
G01 X12.43182 Y13.93877
G01 X12.47505 Y13.91566
G01 X12.51127 Y13.90065
G01 X12.55816 Y13.88645
G01 X12.59661 Y13.87878
G01 X12.64538 Y13.87400
G01 X12.66499 Y13.87304
G01 X13.56499 Y13.87304
G01 X13.58460 Y13.87400
G01 X13.63336 Y13.87878
G01 X13.67182 Y13.88645
G01 X13.71871 Y13.90065
G01 X13.75493 Y13.91566
G01 X13.79816 Y13.93877
G01 X13.83075 Y13.96054
G01 X13.86864 Y13.99166
G01 X13.89635 Y14.01937
G01 X13.92744 Y14.05724
G01 X13.94924 Y14.08985
G01 X13.97235 Y14.13306
G01 X13.98061 Y14.15300
G01 X13.97141 Y14.21848

G04 P0 ( dwell for no time -- G64 should not smooth over this point )
G00 Z10.000000 ( retract )

M5 ( Spindle off. )
G04 P1.000000
M9 ( Coolant off. )
M2 ( Program end. )

