( pcb2gcode 2.5.0 )
( Software-independent Gcode )

G94 ( Millimeters per minute feed rate. )
G21 ( Units == Millimeters. )

G90 ( Absolute coordinates. )
G00 S2000 ( RPM spindle speed. )
G64 P0.01000 ( set maximum deviation from commanded toolpath )
G01 F600.00000 ( Feedrate. )


G00 Z10.00000 (Retract to tool change height)
T1
M5      (Spindle stop.)
G04 P1.00000 (Wait for spindle to stop)
(MSG, Change tool bit to cutter diameter 1.00000mm)
M6      (Tool change.)
M0      (Temporary machine stop.)
M3 ( Spindle on clockwise. )
G04 P1.00000 (Wait for spindle to get up to speed)
G04 P0 ( dwell for no time -- G64 should not smooth over this point )
G00 Z5.00000 ( retract )

G00 X0.54998 Y3.59000 ( rapid move to begin. )
G01 Z-0.42500 F60.00000 ( plunge. )
G04 P0 ( dwell for no time -- G64 should not smooth over this point )
G01 F600.00000
G01 X0.54998 Y8.55500
G01 X0.54998 Y10.05500
G01 X0.54998 Y15.02000
G01 X0.55239 Y15.06900
G01 X0.60116 Y15.56455
G01 X0.62031 Y15.66071
G01 X0.76483 Y16.13719
G01 X0.80238 Y16.22774
G01 X1.03710 Y16.66689
G01 X1.09155 Y16.74839
G01 X1.40743 Y17.13328
G01 X1.47672 Y17.20257
G01 X1.86161 Y17.51845
G01 X1.94311 Y17.57290
G01 X2.38226 Y17.80762
G01 X2.47281 Y17.84517
G01 X2.94929 Y17.98969
G01 X3.04545 Y18.00884
G01 X3.54100 Y18.05761
G01 X3.59000 Y18.06002
G01 X8.55500 Y18.06002
G01 X10.05500 Y18.06002
G01 X15.02000 Y18.06002
G01 X15.06900 Y18.05761
G01 X15.56453 Y18.00884
G01 X15.66066 Y17.98969
G01 X16.13714 Y17.84517
G01 X16.22769 Y17.80762
G01 X16.66683 Y17.57290
G01 X16.74834 Y17.51845
G01 X17.13323 Y17.20257
G01 X17.20252 Y17.13328
G01 X17.51839 Y16.74839
G01 X17.57285 Y16.66689
G01 X17.80757 Y16.22774
G01 X17.84509 Y16.13719
G01 X17.98964 Y15.66071
G01 X18.00877 Y15.56458
G01 X18.05759 Y15.06902
G01 X18.06000 Y15.02000
G01 X18.06000 Y10.05500
G01 X18.06000 Y8.55500
G01 X18.06000 Y3.59000
G01 X18.05759 Y3.54100
G01 X18.00877 Y3.04547
G01 X17.98964 Y2.94934
G01 X17.84509 Y2.47286
G01 X17.80757 Y2.38231
G01 X17.57285 Y1.94317
G01 X17.51839 Y1.86166
G01 X17.20252 Y1.47677
G01 X17.13323 Y1.40748
G01 X16.74834 Y1.09161
G01 X16.66683 Y1.03715
G01 X16.22769 Y0.80243
G01 X16.13714 Y0.76491
G01 X15.66066 Y0.62036
G01 X15.56453 Y0.60123
G01 X15.06900 Y0.55241
G01 X15.02000 Y0.55000
G01 X10.05500 Y0.55000
G01 X8.55500 Y0.55000
G01 X3.59000 Y0.55000
G01 X3.54098 Y0.55241
G01 X3.04542 Y0.60123
G01 X2.94929 Y0.62036
G01 X2.47281 Y0.76491
G01 X2.38226 Y0.80243
G01 X1.94311 Y1.03715
G01 X1.86161 Y1.09161
G01 X1.47672 Y1.40748
G01 X1.40743 Y1.47677
G01 X1.09155 Y1.86166
G01 X1.03710 Y1.94317
G01 X0.80238 Y2.38231
G01 X0.76483 Y2.47286
G01 X0.62031 Y2.94934
G01 X0.60116 Y3.04547
G01 X0.55239 Y3.54100
G01 X0.54998 Y3.59000
G01 Z-0.85000 F60.00000 ( plunge. )
G04 P0 ( dwell for no time -- G64 should not smooth over this point )
G01 F600.00000
G01 X0.54998 Y8.55500
G00 Z-0.60000
G01 X0.54998 Y10.05500
G01 Z-0.85000 F60.00000
G01 F600.00000
G01 X0.54998 Y15.02000
G01 X0.55239 Y15.06900
G01 X0.60116 Y15.56455
G01 X0.62031 Y15.66071
G01 X0.76483 Y16.13719
G01 X0.80238 Y16.22774
G01 X1.03710 Y16.66689
G01 X1.09155 Y16.74839
G01 X1.40743 Y17.13328
G01 X1.47672 Y17.20257
G01 X1.86161 Y17.51845
G01 X1.94311 Y17.57290
G01 X2.38226 Y17.80762
G01 X2.47281 Y17.84517
G01 X2.94929 Y17.98969
G01 X3.04545 Y18.00884
G01 X3.54100 Y18.05761
G01 X3.59000 Y18.06002
G01 X8.55500 Y18.06002
G00 Z-0.60000
G01 X10.05500 Y18.06002
G01 Z-0.85000 F60.00000
G01 F600.00000
G01 X15.02000 Y18.06002
G01 X15.06900 Y18.05761
G01 X15.56453 Y18.00884
G01 X15.66066 Y17.98969
G01 X16.13714 Y17.84517
G01 X16.22769 Y17.80762
G01 X16.66683 Y17.57290
G01 X16.74834 Y17.51845
G01 X17.13323 Y17.20257
G01 X17.20252 Y17.13328
G01 X17.51839 Y16.74839
G01 X17.57285 Y16.66689
G01 X17.80757 Y16.22774
G01 X17.84509 Y16.13719
G01 X17.98964 Y15.66071
G01 X18.00877 Y15.56458
G01 X18.05759 Y15.06902
G01 X18.06000 Y15.02000
G01 X18.06000 Y10.05500
G00 Z-0.60000
G01 X18.06000 Y8.55500
G01 Z-0.85000 F60.00000
G01 F600.00000
G01 X18.06000 Y3.59000
G01 X18.05759 Y3.54100
G01 X18.00877 Y3.04547
G01 X17.98964 Y2.94934
G01 X17.84509 Y2.47286
G01 X17.80757 Y2.38231
G01 X17.57285 Y1.94317
G01 X17.51839 Y1.86166
G01 X17.20252 Y1.47677
G01 X17.13323 Y1.40748
G01 X16.74834 Y1.09161
G01 X16.66683 Y1.03715
G01 X16.22769 Y0.80243
G01 X16.13714 Y0.76491
G01 X15.66066 Y0.62036
G01 X15.56453 Y0.60123
G01 X15.06900 Y0.55241
G01 X15.02000 Y0.55000
G01 X10.05500 Y0.55000
G00 Z-0.60000
G01 X8.55500 Y0.55000
G01 Z-0.85000 F60.00000
G01 F600.00000
G01 X3.59000 Y0.55000
G01 X3.54098 Y0.55241
G01 X3.04542 Y0.60123
G01 X2.94929 Y0.62036
G01 X2.47281 Y0.76491
G01 X2.38226 Y0.80243
G01 X1.94311 Y1.03715
G01 X1.86161 Y1.09161
G01 X1.47672 Y1.40748
G01 X1.40743 Y1.47677
G01 X1.09155 Y1.86166
G01 X1.03710 Y1.94317
G01 X0.80238 Y2.38231
G01 X0.76483 Y2.47286
G01 X0.62031 Y2.94934
G01 X0.60116 Y3.04547
G01 X0.55239 Y3.54100
G01 X0.54998 Y3.59000
G01 Z-1.27500 F60.00000 ( plunge. )
G04 P0 ( dwell for no time -- G64 should not smooth over this point )
G01 F600.00000
G01 X0.54998 Y8.55500
G00 Z-0.60000
G01 X0.54998 Y10.05500
G01 Z-1.27500 F60.00000
G01 F600.00000
G01 X0.54998 Y15.02000
G01 X0.55239 Y15.06900
G01 X0.60116 Y15.56455
G01 X0.62031 Y15.66071
G01 X0.76483 Y16.13719
G01 X0.80238 Y16.22774
G01 X1.03710 Y16.66689
G01 X1.09155 Y16.74839
G01 X1.40743 Y17.13328
G01 X1.47672 Y17.20257
G01 X1.86161 Y17.51845
G01 X1.94311 Y17.57290
G01 X2.38226 Y17.80762
G01 X2.47281 Y17.84517
G01 X2.94929 Y17.98969
G01 X3.04545 Y18.00884
G01 X3.54100 Y18.05761
G01 X3.59000 Y18.06002
G01 X8.55500 Y18.06002
G00 Z-0.60000
G01 X10.05500 Y18.06002
G01 Z-1.27500 F60.00000
G01 F600.00000
G01 X15.02000 Y18.06002
G01 X15.06900 Y18.05761
G01 X15.56453 Y18.00884
G01 X15.66066 Y17.98969
G01 X16.13714 Y17.84517
G01 X16.22769 Y17.80762
G01 X16.66683 Y17.57290
G01 X16.74834 Y17.51845
G01 X17.13323 Y17.20257
G01 X17.20252 Y17.13328
G01 X17.51839 Y16.74839
G01 X17.57285 Y16.66689
G01 X17.80757 Y16.22774
G01 X17.84509 Y16.13719
G01 X17.98964 Y15.66071
G01 X18.00877 Y15.56458
G01 X18.05759 Y15.06902
G01 X18.06000 Y15.02000
G01 X18.06000 Y10.05500
G00 Z-0.60000
G01 X18.06000 Y8.55500
G01 Z-1.27500 F60.00000
G01 F600.00000
G01 X18.06000 Y3.59000
G01 X18.05759 Y3.54100
G01 X18.00877 Y3.04547
G01 X17.98964 Y2.94934
G01 X17.84509 Y2.47286
G01 X17.80757 Y2.38231
G01 X17.57285 Y1.94317
G01 X17.51839 Y1.86166
G01 X17.20252 Y1.47677
G01 X17.13323 Y1.40748
G01 X16.74834 Y1.09161
G01 X16.66683 Y1.03715
G01 X16.22769 Y0.80243
G01 X16.13714 Y0.76491
G01 X15.66066 Y0.62036
G01 X15.56453 Y0.60123
G01 X15.06900 Y0.55241
G01 X15.02000 Y0.55000
G01 X10.05500 Y0.55000
G00 Z-0.60000
G01 X8.55500 Y0.55000
G01 Z-1.27500 F60.00000
G01 F600.00000
G01 X3.59000 Y0.55000
G01 X3.54098 Y0.55241
G01 X3.04542 Y0.60123
G01 X2.94929 Y0.62036
G01 X2.47281 Y0.76491
G01 X2.38226 Y0.80243
G01 X1.94311 Y1.03715
G01 X1.86161 Y1.09161
G01 X1.47672 Y1.40748
G01 X1.40743 Y1.47677
G01 X1.09155 Y1.86166
G01 X1.03710 Y1.94317
G01 X0.80238 Y2.38231
G01 X0.76483 Y2.47286
G01 X0.62031 Y2.94934
G01 X0.60116 Y3.04547
G01 X0.55239 Y3.54100
G01 X0.54998 Y3.59000
G01 Z-1.70000 F60.00000 ( plunge. )
G04 P0 ( dwell for no time -- G64 should not smooth over this point )
G01 F600.00000
G01 X0.54998 Y8.55500
G00 Z-0.60000
G01 X0.54998 Y10.05500
G01 Z-1.70000 F60.00000
G01 F600.00000
G01 X0.54998 Y15.02000
G01 X0.55239 Y15.06900
G01 X0.60116 Y15.56455
G01 X0.62031 Y15.66071
G01 X0.76483 Y16.13719
G01 X0.80238 Y16.22774
G01 X1.03710 Y16.66689
G01 X1.09155 Y16.74839
G01 X1.40743 Y17.13328
G01 X1.47672 Y17.20257
G01 X1.86161 Y17.51845
G01 X1.94311 Y17.57290
G01 X2.38226 Y17.80762
G01 X2.47281 Y17.84517
G01 X2.94929 Y17.98969
G01 X3.04545 Y18.00884
G01 X3.54100 Y18.05761
G01 X3.59000 Y18.06002
G01 X8.55500 Y18.06002
G00 Z-0.60000
G01 X10.05500 Y18.06002
G01 Z-1.70000 F60.00000
G01 F600.00000
G01 X15.02000 Y18.06002
G01 X15.06900 Y18.05761
G01 X15.56453 Y18.00884
G01 X15.66066 Y17.98969
G01 X16.13714 Y17.84517
G01 X16.22769 Y17.80762
G01 X16.66683 Y17.57290
G01 X16.74834 Y17.51845
G01 X17.13323 Y17.20257
G01 X17.20252 Y17.13328
G01 X17.51839 Y16.74839
G01 X17.57285 Y16.66689
G01 X17.80757 Y16.22774
G01 X17.84509 Y16.13719
G01 X17.98964 Y15.66071
G01 X18.00877 Y15.56458
G01 X18.05759 Y15.06902
G01 X18.06000 Y15.02000
G01 X18.06000 Y10.05500
G00 Z-0.60000
G01 X18.06000 Y8.55500
G01 Z-1.70000 F60.00000
G01 F600.00000
G01 X18.06000 Y3.59000
G01 X18.05759 Y3.54100
G01 X18.00877 Y3.04547
G01 X17.98964 Y2.94934
G01 X17.84509 Y2.47286
G01 X17.80757 Y2.38231
G01 X17.57285 Y1.94317
G01 X17.51839 Y1.86166
G01 X17.20252 Y1.47677
G01 X17.13323 Y1.40748
G01 X16.74834 Y1.09161
G01 X16.66683 Y1.03715
G01 X16.22769 Y0.80243
G01 X16.13714 Y0.76491
G01 X15.66066 Y0.62036
G01 X15.56453 Y0.60123
G01 X15.06900 Y0.55241
G01 X15.02000 Y0.55000
G01 X10.05500 Y0.55000
G00 Z-0.60000
G01 X8.55500 Y0.55000
G01 Z-1.70000 F60.00000
G01 F600.00000
G01 X3.59000 Y0.55000
G01 X3.54098 Y0.55241
G01 X3.04542 Y0.60123
G01 X2.94929 Y0.62036
G01 X2.47281 Y0.76491
G01 X2.38226 Y0.80243
G01 X1.94311 Y1.03715
G01 X1.86161 Y1.09161
G01 X1.47672 Y1.40748
G01 X1.40743 Y1.47677
G01 X1.09155 Y1.86166
G01 X1.03710 Y1.94317
G01 X0.80238 Y2.38231
G01 X0.76483 Y2.47286
G01 X0.62031 Y2.94934
G01 X0.60116 Y3.04547
G01 X0.55239 Y3.54100
G01 X0.54998 Y3.59000

G04 P0 ( dwell for no time -- G64 should not smooth over this point )
G00 Z10.000000 ( retract )

M5 ( Spindle off. )
G04 P1.000000
M9 ( Coolant off. )
M2 ( Program end. )

